!!!!SEGMENT: pl-sa--63-a-ii-3--001-001_neumann--sinfonia-in-g-allegro.krn
!!!cenid: 17xx:1822a
!!!COM: Neumann
!!!COM-rismID: pe30002337
!!!CDT:
!!!CNT:
!!!OPR: Sinfonia in G
!!!OTL: Allegro
!!!OMV: 001
!!!PDT:
!!!AGN: Secular
!!!SMS-siglum: PL-SA
!!!SMS-shelfmark: 63/A II 3
!!!SMS-shelfwork: 001-001 M
!!!SMS-variant:
!!!SMS-altvar:
!!!NIFC-rismSourceID: 1001034986
!!!NIFC-islandoraID:
!!!URL-pdf-islandora:
!!!URL-scan: https://bc.bdsandomierz.pl/dlibra/publication/1342/edition/1310/content @EN{Scan on Cyfrowa Biblioteka Diecezjalna w Sandomierzu} @PL{Skany w portalu Cyfrowa Biblioteka Diecezjalna w Sandomierzu}
!!!ONB-nifc: UWAGA: części Sinfonii: 1. Allegro, 2. Andante, 3. Menuett, 4. Presto
!!!AIN: 1 cbass 2 cor 2 oboe 1 viola 2 violn
!!!key: G
**kern	**dynam	**kern	**dynam	**kern	**dynam	**kern	**dynam	**kern	**kern	**kern	**dynam	**kern	**dynam
*group3	*	*group3	*	*group3	*	*group3	*	*group2	*group2	*group1	*	*group1	*
*part8	*part8	*part7	*part7	*part6	*part6	*part5	*part5	*part4	*part3	*part2	*part2	*part1	*part1
*staff8	*	*staff7	*	*staff6	*	*staff5	*	*staff4	*staff3	*staff2	*	*staff1	*
*I"Baſso:	*	*I"Viola:	*	*I"Violino: Secondo:	*	*I"Violino: Primo:	*	*I"Cornu Secndo: in g:	*I"Cornu: Primo: in g:	*I"Oboe Secondo:	*	*I"Oboe: Primo:	*
*I'[Cb]	*	*I'[Vla]	*	*I'[Vl 2]	*	*I'[Vl 1]	*	*I'[Cor 2]	*I'[Cor 1]	*I'[Ob 2]	*	*I'[Ob 1]	*
*Icbass	*	*Iviola	*	*Ivioln	*	*Ivioln	*	*Icor	*Icor	*Ioboe	*	*Ioboe	*
*ICstr	*	*ICstr	*	*ICstr	*	*ICstr	*	*ICbras	*ICbras	*ICww	*	*ICww	*
*clefF4	*	*clefC3	*	*clefG2	*	*clefG2	*	*clefG2	*clefG2	*clefG2	*	*clefG2	*
*	*	*	*	*	*	*	*	*ITrd3c5	*ITrd3c5	*	*	*	*
*k[f#]	*	*k[f#]	*	*k[f#]	*	*k[f#]	*	*k[f#]	*k[f#]	*k[f#]	*	*k[f#]	*
*G:	*	*G:	*	*G:	*	*G:	*	*	*	*G:	*	*G:	*
*M3/4	*	*M3/4	*	*M3/4	*	*M3/4	*	*M3/4	*M3/4	*M3/4	*	*M3/4	*
*>[A,A,B,B]	*	*>[A,A,B,B]	*	*>[A,A,B,B]	*	*>[A,A,B,B]	*	*>[A,A,B,B]	*>[A,A,B,B]	*>[A,A,B,B]	*	*>[A,A,B,B]	*
=1	=1	=1	=1	=1	=1	=1	=1	=1	=1	=1	=1	=1	=1
*>A	*	*>A	*	*>A	*	*>A	*	*>A	*>A	*>A	*	*>A	*
!	!	!	!	!	!	!	!	!	!	!	!	!LO:TX:t=P:p=p:global:problem	!
!LO:TX:t=P:problem=all\right&colon; global	!	!	!	!	!	!	!	!LO:TX:a:i:t=Allo&colon;	!LO:TX:a:i:t=Allo&colon;	!LO:TX:a:i:t=Allo&colon;	!	!LO:TX:t=P:f=for:global:problem	!
!LO:TX:a:i:t=Allo&colon;	!	!LO:TX:a:i:t=Sinfonia&colon;	!	!LO:TX:a:i:t=Allo&colon;	!	!LO:TX:a:i:t=Sinfonia&colon;	!	!LO:TX:a:i:t=Sinfo&colon;	!LO:TX:a:i:t=Sinfo&colon;	!LO:TX:a:i:t=Sinfo&colon;	!	!LO:TX:a:i:t=Allo&colon;	!
!LO:TX:a:i:t=Sinfo	!LO:DY:rj:t=pino&colon;	!LO:TX:a:i:t=Allo	!LO:DY:rj:t=p&colon;	!LO:TX:a:i:t=Sinfo&colon;	!	!LO:TX:a:i:t=Allo&colon;	!LO:DY:t=pia&colon;	!LO:TX:a:t=12	!LO:TX:a:t=12	!LO:TX:a:t=10&colon;	!	!LO:TX:a:i:t=Sinfonia&colon;	!
8G\L	p	8B/L	p	8d/L	.	4g/	p	0.r	0.r	0.r	.	0.r	.
8G\	.	8B/	.	8d/	.	.	.	.	.	.	.	.	.
!	!	!	!	!	!	!LO:TX:t=P:problem=all\right&colon; global	!	!	!	!	!	!	!
8G\	.	8B/	.	8d/	.	4gg\	.	.	.	.	.	.	.
8G\	.	8B/	.	8d/	.	.	.	.	.	.	.	.	.
8G\	.	8B/	.	8d/	.	8r	.	.	.	.	.	.	.
8G\J	.	8B/J	.	8d/J	.	8b\	.	.	.	.	.	.	.
=2	=2	=2	=2	=2	=2	=2	=2	=2-	=2-	=2-	=2	=2-	=2
!	!	!LO:TX:t=P:problem=all\right&colon; global	!	!	!	!	!	!	!	!	!	!	!
8C/L	.	8c\L	.	8e/L	.	(>8b\L	.	.	.	.	.	.	.
8C/	.	8c\	.	8e/	.	8a\J)	.	.	.	.	.	.	.
8C/	.	8c\	.	8e/	.	4cc\	.	.	.	.	.	.	.
8C/	.	8c\	.	8e/	.	.	.	.	.	.	.	.	.
8C/	.	8c\	.	8e/	.	8r	.	.	.	.	.	.	.
8C/J	.	8c\J	.	8e/J	.	8g/	.	.	.	.	.	.	.
=3	=3	=3	=3	=3	=3	=3	=3	=3-	=3-	=3-	=3	=3-	=3
8D\L	.	8A/L	.	8f#/L	.	4f#/	.	.	.	.	.	.	.
8D\	.	8A/	.	8f#/	.	.	.	.	.	.	.	.	.
8D\	.	8A/	.	8f#/	.	4aa\	.	.	.	.	.	.	.
8D\	.	8A/	.	8f#/	.	.	.	.	.	.	.	.	.
8D\	.	8A/	.	8f#/	.	8r	.	.	.	.	.	.	.
8D\J	.	8A/J	.	8f#/J	.	8cc\	.	.	.	.	.	.	.
=4	=4	=4	=4	=4	=4	=4	=4	=4-	=4-	=4-	=4	=4-	=4
8G\L	.	8G/L	.	8g/L	.	(>8cc\L	.	.	.	.	.	.	.
8G\	.	8G/	.	8g/	.	8b\J)	.	.	.	.	.	.	.
8G\	.	8G/	.	8B/	.	4dd\	.	.	.	.	.	.	.
8G\	.	8G/	.	8B/	.	.	.	.	.	.	.	.	.
8G\	.	8G/	.	8B/	.	8r	.	.	.	.	.	.	.
8G\J	.	8G/J	.	8B/J	.	8gg\	.	.	.	.	.	.	.
=5	=5	=5	=5	=5	=5	=5	=5	=5-	=5-	=5-	=5	=5-	=5
8BB/L	.	8B/L	.	8d/L	.	8gg\L	.	0.r	0.r	0.r	.	0.r	.
8BB/	.	8B/	.	8d/	.	8ffn\J	.	.	.	.	.	.	.
8BB/	.	8B/	.	8d/	.	4ff\	.	.	.	.	.	.	.
8BB/	.	8B/	.	8d/	.	.	.	.	.	.	.	.	.
8BB/	.	8B/	.	8d/	.	8r	.	.	.	.	.	.	.
8BB/J	.	8B/J	.	8d/J	.	8gg\	.	.	.	.	.	.	.
!	!	!LO:LB:g=original	!	!	!	!	!	!	!	!	!	!	!
=6	=6	=6	=6	=6	=6	=6	=6	=6-	=6-	=6-	=6	=6-	=6
8C/L	.	8c\L	.	8g/L	.	8ffn\L	.	.	.	.	.	.	.
8C/	.	8c\	.	8g/	.	8ee\J	.	.	.	.	.	.	.
8C/	.	8c\	.	8g/	.	4ee\	.	.	.	.	.	.	.
8C/	.	8c\	.	8g/	.	.	.	.	.	.	.	.	.
8C/	.	8c\	.	8g/	.	8r	.	.	.	.	.	.	.
8C/J	.	8c\J	.	8g/J	.	8ee\	.	.	.	.	.	.	.
!LO:LB:g=original	!	!	!	!	!	!LO:LB:g=original	!	!	!	!	!	!	!
=7	=7	=7	=7	=7	=7	=7	=7	=7-	=7-	=7-	=7	=7-	=7
.	.	.	.	.	.	8qqee/	.	.	.	.	.	.	.
8D\L	.	8d\L	.	8f#/L	.	4.dd\	.	.	.	.	.	.	.
8D\	.	8d\	.	8f#/	.	.	.	.	.	.	.	.	.
8D\	.	8d\	.	8f#/	.	.	.	.	.	.	.	.	.
8D\	.	8d\	.	8f#/	.	8bb\L	.	.	.	.	.	.	.
8D\	.	8f#\	.	8f#/	.	8aa\	.	.	.	.	.	.	.
8D\J	.	8f#\J	.	8f#/J	.	8cc\J	.	.	.	.	.	.	.
!	!	!	!	!LO:LB:g=original	!	!	!	!	!	!	!	!	!
=8	=8	=8	=8	=8	=8	=8	=8	=8-	=8-	=8-	=8	=8-	=8
8E\L	.	8e\L	.	8a/L	.	(>8cc\L	.	.	.	.	.	.	.
8E\	.	8e\	.	8g/	.	8b\J)	.	.	.	.	.	.	.
8E\	.	8e\	.	8g/	.	4b\	.	.	.	.	.	.	.
8E\	.	8e\	.	8g/	.	.	.	.	.	.	.	.	.
8E\	.	8e\	.	8g/	.	8r	.	.	.	.	.	.	.
8E\J	.	8e\J	.	8g/J	.	8b\	.	.	.	.	.	.	.
=9	=9	=9	=9	=9	=9	=9	=9	=9-	=9-	=9-	=9	=9-	=9
*	*	*	*	*tremolo	*	*	*	*	*	*	*	*	*
8C/L	.	8c\L	.	8e/L	.	4.a/	.	0.r	0.r	0.r	.	0.r	.
8C/	.	8c\	.	8e/	.	.	.	.	.	.	.	.	.
8C/	.	8c\	.	8e/	.	.	.	.	.	.	.	.	.
!!mixed beam:problem
!	!	!	!	!	!	!LO:TX:t=P:problem=mixed beam	!	!	!	!	!	!	!
8C/	.	8c\	.	8e/	.	8cc\L	.	.	.	.	.	.	.
8C/	.	8c\	.	8e/	.	8ee\	.	.	.	.	.	.	.
8C/J	.	8c\J	.	8e/J	.	8e/J	.	.	.	.	.	.	.
*	*	*	*	*Xtremolo	*	*	*	*	*	*	*	*	*
=10	=10	=10	=10	=10	=10	=10	=10	=10-	=10-	=10-	=10	=10-	=10
.	.	.	.	.	.	8qqe/	.	.	.	.	.	.	.
8D\L	.	4d\	.	8A/L	.	2f#/	.	.	.	.	.	.	.
8D\	.	.	.	8A/	.	.	.	.	.	.	.	.	.
8c\	.	4r	.	8A/	.	.	.	.	.	.	.	.	.
8c\	.	.	.	8A/	.	.	.	.	.	.	.	.	.
8B\	.	4r	.	8d/	.	4g/	.	.	.	.	.	.	.
8B\J	.	.	.	8d/J	.	.	.	.	.	.	.	.	.
=11	=11	=11	=11	=11	=11	=11	=11	=11-	=11-	=11-	=11	=11-	=11
*	*	*	*	*tremolo	*	*	*	*	*	*	*	*	*
.	.	.	.	.	.	16qqa/LL	.	.	.	.	.	.	.
!	!	!LO:TX:a:t=2	!	!	!	!	!	!	!	!	!	!	!
.	.	.	.	.	.	16qqb/JJ	.	.	.	.	.	.	.
8F#\L	.	1.r	.	8d/L	.	4.cc\	.	.	.	.	.	.	.
8F#\	.	.	.	8d/	.	.	.	.	.	.	.	.	.
8F#\	.	.	.	8d/	.	.	.	.	.	.	.	.	.
8F#\	.	.	.	8d/	.	8b\L	.	.	.	.	.	.	.
8G\	.	.	.	8d/	.	8gg\	.	.	.	.	.	.	.
8G\J	.	.	.	8d/J	.	8b\J	.	.	.	.	.	.	.
*	*	*	*	*Xtremolo	*	*	*	*	*	*	*	*	*
=12	=12	=12-	=12	=12	=12	=12	=12	=12-	=12-	=12-	=12	=12-	=12
8D\L	.	.	.	4.g/	.	4.b\	.	.	.	.	.	.	.
8D\	.	.	.	.	.	.	.	.	.	.	.	.	.
8D\	.	.	.	.	.	.	.	.	.	.	.	.	.
*	*	*	*	*	*	*Xtuplet	*	*	*	*	*	*	*
!	!	!	!	!LO:TUP:b:problem=klamra łukowa	!	!	!	!	!	!	!	!	!
8D\	.	.	.	24b/LL	.	24dd\LL	.	.	.	.	.	.	.
.	.	.	.	24a/	.	24cc\	.	.	.	.	.	.	.
.	.	.	.	24g/JJ	.	24b\JJ	.	.	.	.	.	.	.
8D\	.	.	.	4f#/	.	4a\	.	.	.	.	.	.	.
8D\J	.	.	.	.	.	.	.	.	.	.	.	.	.
!LO:LB:g=original	!	!	!	!	!	!	!	!	!	!	!	!	!
=13	=13	=13	=13	=13	=13	=13	=13	=13	=13	=13	=13	=13	=13
!	!LO:DY:rj:t=for&colon;	!	!LO:DY:rj:t=for	!LO:TX:t=P:problem=all\right&colon; global	!LO:DY:rj	!	!LO:DY:t=for	!	!LO:TX:t=P:problem=all\right&colon; global	!	!	!	!LO:DY:rj
8G\L	f	8d\L	f	16b\LL	f	4g/	f	8G/L	8g\L	4g/	.	4g/	f
.	.	.	.	16b\	.	.	.	.	.	.	.	.	.
8G\	.	8d\	.	16b\	.	.	.	8G/	8g\	.	.	.	.
.	.	.	.	16b\JJ	.	.	.	.	.	.	.	.	.
*	*	*	*	*	*	*	*	*	*	*2\right	*	*	*
!	!	!	!	!	!	!	!	!	!	!LO:TX:t=P:problem=all\right&colon; global	!	!LO:TX:t=P:problem=all\right&colon; global	!
8G\	.	8d\	.	16b\LL	.	4gg\	.	8G/	8g\	2b\	.	4.gg\	.
.	.	.	.	16b\	.	.	.	.	.	.	.	.	.
8G\	.	8d\	.	16b\	.	.	.	8G/J	8g\J	.	.	.	.
.	.	.	.	16b\JJ	.	.	.	.	.	.	.	.	.
8G\	.	8d\	.	16b\LL	.	8r	.	4G/	4g\	.	.	.	.
.	.	.	.	16b\	.	.	.	.	.	.	.	.	.
8G\J	.	8d\J	.	16b\	.	8bb\	.	.	.	.	.	8bb\	.
.	.	.	.	16b\JJ	.	.	.	.	.	.	.	.	.
!	!	!LO:LB:g=original	!	!	!	!LO:LB:g=original	!	!	!	!	!	!	!
=14	=14	=14	=14	=14	=14	=14	=14	=14	=14	=14	=14	=14	=14
*	*	*2\right	*	*	*	*	*	*	*	*	*	*	*
*	*	*tremolo	*	*	*	*	*	*	*	*	*	*	*
8F#\L	.	8d\L	.	16cc\LL	.	(>8bb\L	.	4r	4r	4cc\	.	8bb\L	.
.	.	.	.	16cc\	.	.	.	.	.	.	.	.	.
8F#\	.	8d\	.	16cc\	.	8aa\J)	.	.	.	.	.	8aa\J	.
.	.	.	.	16cc\JJ	.	.	.	.	.	.	.	.	.
*	*	*	*	*	*	*	*	*	*	*	*	*2\right	*
8F#\	.	8d\	.	16a/LL	.	16ccc\LL	.	4d/	4a\	2aa\	.	2ccc\	.
.	.	.	.	16a/	.	16bb\	.	.	.	.	.	.	.
8F#\	.	8d\	.	16a/	.	16aa\	.	.	.	.	.	.	.
.	.	.	.	16a/JJ	.	16gg\JJ	.	.	.	.	.	.	.
!	!	!	!	!LO:LB:g=original	!	!	!	!	!	!	!	!	!
8F#\	.	8d\	.	16a/LL	.	16ff#\LL	.	8r	8r	.	.	.	.
.	.	.	.	16a/	.	16ee\	.	.	.	.	.	.	.
8F#\J	.	8d\J	.	16a/	.	16dd\	.	8d/	8a\	.	.	.	.
.	.	.	.	16a/JJ	.	16cc\JJ	.	.	.	.	.	.	.
*	*	*Xtremolo	*	*	*	*	*	*	*	*	*	*	*
=15	=15	=15	=15	=15	=15	=15	=15	=15	=15	=15	=15	=15	=15
!	!	!	!	!	!	!	!	!LO:TX:t=P:problem=all\right&colon; global	!	!	!	!	!
8G\L	.	8d\L	.	16b\LL	.	4b\	.	8g\L	8b\L	4r	.	4r	.
.	.	.	.	16b\	.	.	.	.	.	.	.	.	.
8G\	.	8d\	.	16b\	.	.	.	16g\L	16b\L	.	.	.	.
.	.	.	.	16b\JJ	.	.	.	16a\JJ	16cc\JJ	.	.	.	.
8G\	.	8d\	.	16b\LL	.	4gg\	.	8g\L	8b\L	2b\	.	4.gg\	.
.	.	.	.	16b\	.	.	.	.	.	.	.	.	.
8G\	.	8d\	.	16b\	.	.	.	8g\J	8b\J	.	.	.	.
.	.	.	.	16b\JJ	.	.	.	.	.	.	.	.	.
8G\	.	8d\	.	16b\LL	.	8r	.	4g\	4b\	.	.	.	.
.	.	.	.	16b\	.	.	.	.	.	.	.	.	.
8G\J	.	8d\J	.	16b\	.	8bb\	.	.	.	.	.	8bb\	.
.	.	.	.	16b\JJ	.	.	.	.	.	.	.	.	.
=16	=16	=16	=16	=16	=16	=16	=16	=16	=16	=16	=16	=16	=16
8F#\L	.	8d\L	.	16cc\LL	.	(>8bb\L	.	4r	4r	4cc\	.	8bb\L	.
.	.	.	.	16cc\	.	.	.	.	.	.	.	.	.
8F#\	.	8d\	.	16cc\	.	8aa\J)	.	.	.	.	.	8aa\J	.
.	.	.	.	16cc\JJ	.	.	.	.	.	.	.	.	.
8F#\	.	8d\	.	16a/LL	.	16ccc\LL	.	4d/	4a\	2aa\	.	2ccc\	.
.	.	.	.	16a/	.	16bb\	.	.	.	.	.	.	.
8F#\	.	8d\	.	16a/	.	16aa\	.	.	.	.	.	.	.
.	.	.	.	16a/JJ	.	16gg\JJ	.	.	.	.	.	.	.
8F#\	.	8d\	.	16a/LL	.	16ff#\LL	.	4d/	4a\	.	.	.	.
.	.	.	.	16a/	.	16ee\	.	.	.	.	.	.	.
8F#\J	.	8d\J	.	16a/	.	16dd\	.	.	.	.	.	.	.
.	.	.	.	16a/JJ	.	16cc\JJ	.	.	.	.	.	.	.
=17	=17	=17	=17	=17	=17	=17	=17	=17	=17	=17	=17	=17	=17
!!mixed beam:problem
!LO:TX:t=P:problem=mixed beam	!	!	!	!	!	!	!	!	!	!	!	!	!
8G\L	.	8G/L	.	16dd\LL	.	4b\	.	4B/	4g\	4r	.	4r	.
.	.	.	.	16dd\	.	.	.	.	.	.	.	.	.
8G\	.	8G/	.	16dd\	.	.	.	.	.	.	.	.	.
.	.	.	.	16dd\JJ	.	.	.	.	.	.	.	.	.
*	*	*	*	*tremolo	*	*	*	*	*	*	*	*	*
8BB/	.	8B/	.	16dd\LL	.	4gg\	.	8r	8r	2dd\	.	4.gg\	.
.	.	.	.	16dd\	.	.	.	.	.	.	.	.	.
8BB/	.	8B/	.	16dd\	.	.	.	8G/	8g\	.	.	.	.
.	.	.	.	16dd\JJ	.	.	.	.	.	.	.	.	.
8BB/	.	8B/	.	16dd\LL	.	8r	.	4G/	4g\	.	.	.	.
.	.	.	.	16dd\	.	.	.	.	.	.	.	.	.
8BB/J	.	8B/J	.	16dd\	.	8ffn\	.	.	.	.	.	8ffn\	.
.	.	.	.	16dd\JJ	.	.	.	.	.	.	.	.	.
*	*	*	*	*Xtremolo	*	*	*	*	*	*	*	*	*
!	!	!	!	!	!	!LO:LB:g=original	!	!	!	!	!	!	!
=18	=18	=18	=18	=18	=18	=18	=18	=18	=18	=18	=18	=18	=18
!	!	!	!	!	!	!LO:SIC:v:s=8ffn	!	!	!	!	!	!LO:SIC:v:s=8ffn	!
8C/L	.	8g\L	.	16dd\LL	.	(>8ff#\L	.	4r	4r	8dd\L	.	8ff#\L	.
.	.	.	.	16cc\	.	.	.	.	.	.	.	.	.
8C/	.	8g\	.	16cc\	.	8ee\J)	.	.	.	8cc\J	.	8ee\J	.
.	.	.	.	16cc\JJ	.	.	.	.	.	.	.	.	.
8C/	.	8g\	.	16cc\LL	.	4ee\	.	8r	8r	2cc\	.	2ee\	.
.	.	.	.	16cc\	.	.	.	.	.	.	.	.	.
8C/	.	8g\	.	16cc\	.	.	.	8G/	8g\	.	.	.	.
.	.	.	.	16cc\JJ	.	.	.	.	.	.	.	.	.
8C/	.	8g\	.	16cc\LL	.	8r	.	4G/	4g\	.	.	.	.
.	.	.	.	16cc\	.	.	.	.	.	.	.	.	.
8C/J	.	8g\J	.	16cc\	.	8ee\	.	.	.	.	.	.	.
.	.	.	.	16cc\JJ	.	.	.	.	.	.	.	.	.
!LO:LB:g=original	!	!	!	!LO:LB:g=original	!	!	!	!	!	!	!	!	!
=19	=19	=19	=19	=19	=19	=19	=19	=19	=19	=19	=19	=19	=19
!	!	!	!	!	!	!	!	!LO:TX:a:t=1	!LO:TX:a:t=1.	!	!	!	!
4D\	.	16g\LL	.	16b\LL	.	8dd\L	.	2.r	2.r	2b/	.	2dd\	.
.	.	16g\	.	16b\	.	.	.	.	.	.	.	.	.
.	.	16g\	.	16b\	.	16bb\L	.	.	.	.	.	.	.
.	.	16g\JJ	.	16b\JJ	.	16gg\JJ	.	.	.	.	.	.	.
8r	.	16f#\LL	.	16b\LL	.	4dd\	.	.	.	.	.	.	.
.	.	16f#\	.	16b\	.	.	.	.	.	.	.	.	.
8D\L	.	16f#\	.	16b\	.	.	.	.	.	.	.	.	.
.	.	16f#\JJ	.	16b\JJ	.	.	.	.	.	.	.	.	.
8E\	.	16d\LL	.	16a/LL	.	4cc\	.	.	.	4a/	.	4cc\	.
.	.	16d\	.	16a/	.	.	.	.	.	.	.	.	.
8F#\J	.	16d\	.	16a/	.	.	.	.	.	.	.	.	.
.	.	16d\JJ	.	16a/JJ	.	.	.	.	.	.	.	.	.
!	!	!LO:LB:g=original	!	!	!	!	!	!LO:LB:g=original	!LO:LB:g=original	!	!	!LO:LB:g=original	!
=20	=20	=20	=20	=20	=20	=20	=20	=20	=20	=20	=20	=20	=20
!!mixed beam:problem
!LO:TX:t=P:problem=mixed beam	!	!	!	!	!	!	!	!	!	!	!	!	!
8G\L	.	16d\LL	.	16g/LL	.	8.b\L	.	8r	8r	8.g/L	.	8.b\L	.
.	.	16d\	.	16g/	.	.	.	.	.	.	.	.	.
8G\	.	16d\	.	16g/	.	.	.	8G/L	8g\L	.	.	.	.
.	.	16d\JJ	.	16g/JJ	.	16cc\Jk	.	.	.	16a/Jk	.	16cc\Jk	.
8G\	.	16G/LL	.	16b\LL	.	4dd\	.	8G/	8g\	4b\	.	4dd\	.
.	.	16G/	.	16b\	.	.	.	.	.	.	.	.	.
8G\	.	16G/	.	16b\	.	.	.	8G/J	8g\J	.	.	.	.
.	.	16G/JJ	.	16b\JJ	.	.	.	.	.	.	.	.	.
8C/	.	16c\LL	.	16cc\LL	.	8r	.	4G/	4g\	4cc\	.	4ee\	.
.	.	16c\	.	16cc\	.	.	.	.	.	.	.	.	.
8C/J	.	16c\	.	16cc\	.	8ee\	.	.	.	.	.	.	.
.	.	16c\JJ	.	16cc\JJ	.	.	.	.	.	.	.	.	.
=21	=21	=21	=21	=21	=21	=21	=21	=21	=21	=21	=21	=21	=21
4D\	.	16d\LL	.	16b\LL	.	8dd\L	.	4r	4r	2b/	.	2dd\	.
.	.	16d\	.	16b\	.	.	.	.	.	.	.	.	.
.	.	16d\	.	16b\	.	16bb\L	.	.	.	.	.	.	.
.	.	16d\JJ	.	16b\JJ	.	16gg\JJ	.	.	.	.	.	.	.
8r	.	16d\LL	.	16b\LL	.	4dd\	.	4r	4r	.	.	.	.
.	.	16d\	.	16b\	.	.	.	.	.	.	.	.	.
8D\L	.	16d\	.	16b\	.	.	.	.	.	.	.	.	.
.	.	16d\JJ	.	16b\JJ	.	.	.	.	.	.	.	.	.
8E\	.	16d\LL	.	16a/LL	.	4cc\	.	4d/	4a\	4a/	.	4cc\	.
.	.	16d\	.	16a/	.	.	.	.	.	.	.	.	.
8F#\J	.	16d\	.	16a/	.	.	.	.	.	.	.	.	.
.	.	16d\JJ	.	16a/JJ	.	.	.	.	.	.	.	.	.
!	!	!	!	!	!	!	!	!	!	!LO:LB:g=original	!	!	!
=22	=22	=22	=22	=22	=22	=22	=22	=22	=22	=22	=22	=22	=22
4G\	.	4d\	.	4g/	.	16b/LL	.	4g\	4b\	4g/	.	4b\	.
.	.	.	.	.	.	16g/	.	.	.	.	.	.	.
.	.	.	.	.	.	16a/	.	.	.	.	.	.	.
.	.	.	.	.	.	16b/JJ	.	.	.	.	.	.	.
4r	.	4r	.	4r	.	16cc\LL	.	4r	4r	4r	.	4r	.
.	.	.	.	.	.	16dd\	.	.	.	.	.	.	.
.	.	.	.	.	.	16ee\	.	.	.	.	.	.	.
.	.	.	.	.	.	16ff#\JJ	.	.	.	.	.	.	.
4r	.	4r	.	4r	.	16gg\LL	.	4r	4r	4r	.	4r	.
.	.	.	.	.	.	16aa\	.	.	.	.	.	.	.
.	.	.	.	.	.	16bb\	.	.	.	.	.	.	.
.	.	.	.	.	.	16ccc\JJ	.	.	.	.	.	.	.
!	!	!	!	!	!	!LO:LB:g=original	!	!	!	!	!	!	!
=23	=23	=23	=23	=23	=23	=23	=23	=23	=23	=23	=23	=23	=23
8BB/L	.	8B\L	.	16gg\LL	.	4ddd\	.	4G/	4g\	4dd\	.	2.gg\	.
.	.	.	.	16gg\	.	.	.	.	.	.	.	.	.
8BB/	.	8B\	.	16gg\	.	.	.	.	.	.	.	.	.
.	.	.	.	16gg\JJ	.	.	.	.	.	.	.	.	.
8C/	.	8c\	.	16gg\LL	.	4eee\	.	4G/	4g\	2ee\	.	.	.
.	.	.	.	16gg\	.	.	.	.	.	.	.	.	.
8C/	.	8c\	.	16gg\	.	.	.	.	.	.	.	.	.
.	.	.	.	16gg\JJ	.	.	.	.	.	.	.	.	.
!	!	!	!	!LO:LB:g=original	!	!	!	!	!	!	!	!	!
8C#X/	.	8c#X\	.	16ee\LL	.	4gg\	.	4r	4r	.	.	.	.
.	.	.	.	16ee\	.	.	.	.	.	.	.	.	.
8C#/J	.	8c#\J	.	16ee\	.	.	.	.	.	.	.	.	.
.	.	.	.	16ee\JJ	.	.	.	.	.	.	.	.	.
=24	=24	=24	=24	=24	=24	=24	=24	=24	=24	=24	=24	=24	=24
!!mixed beam:problem
!	!	!	!	!LO:TX:t=P:problem=mixed beam	!	!	!	!	!	!	!	!	!
8D\L	.	8d\L	.	16dd\LL	.	(>32ff#\LLL	.	8r	8r	4dd\	.	4ff#\	.
.	.	.	.	.	.	32ee\JJ)	.	.	.	.	.	.	.
.	.	.	.	16f#/	.	8.dd\J	.	.	.	.	.	.	.
8D\	.	8d\	.	16f#/	.	.	.	8d/L	8a\L	.	.	.	.
.	.	.	.	16f#/JJ	.	.	.	.	.	.	.	.	.
8F#\	.	8d\	.	16f#/LL	.	4d/	.	8d/	8a\	4d/	.	4d/	.
.	.	.	.	16f#/	.	.	.	.	.	.	.	.	.
8A\J	.	8c#X\J	.	16e/	.	.	.	8d/J	8a\J	.	.	.	.
.	.	.	.	16e/JJ	.	.	.	.	.	.	.	.	.
4d\	.	4d\	.	4d/	.	4r	.	4d/	4a\	4r	.	4r	.
!	!	!	!	!LO:LB:g=original	!	!	!	!	!	!	!	!	!
=25	=25	=25	=25	=25	=25	=25	=25	=25	=25	=25	=25	=25	=25
!LO:TX:a:t=4	!	!	!LO:DY:rj:t=pia&colon;	!	!LO:DY:rj:t=p&colon;	!	!	!LO:TX:a:t=4	!LO:TX:a:t=4	!LO:TX:a:t=4	!	!LO:TX:a:t=4	!
0.r	.	8dd\L	p	8ff#\L	p	4aa\	.	0.r	0.r	0.r	.	0.r	.
.	.	8dd\	.	8ff#\	.	.	.	.	.	.	.	.	.
!	!	!	!	!	!	!	!LO:DY:t=p&colon;	!	!	!	!	!	!
.	.	8dd\	.	8ff#\	.	4aa\	p	.	.	.	.	.	.
.	.	8dd\	.	8ff#\	.	.	.	.	.	.	.	.	.
.	.	8dd\	.	8ff#\	.	8r	.	.	.	.	.	.	.
.	.	8dd\J	.	8gg\J	.	8bb\	.	.	.	.	.	.	.
=26-	=26	=26	=26	=26	=26	=26	=26	=26-	=26-	=26-	=26	=26-	=26
*	*	*	*	*2\right	*	*2\right	*	*	*	*	*	*	*
.	.	.	.	8qqff#/	.	.	.	.	.	.	.	.	.
.	.	8r	.	2ee\	.	2gg\	.	.	.	.	.	.	.
!!mixed beam:problem
!	!	!LO:TX:t=P:problem=mixed beam	!	!	!	!	!	!	!	!	!	!	!
.	.	8a\L	.	.	.	.	.	.	.	.	.	.	.
.	.	8b\	.	.	.	.	.	.	.	.	.	.	.
.	.	8cc#X\	.	.	.	.	.	.	.	.	.	.	.
.	.	8dd\	.	4dd\	.	4ff#\	.	.	.	.	.	.	.
.	.	8d/J	.	.	.	.	.	.	.	.	.	.	.
=27-	=27	=27	=27	=27	=27	=27	=27	=27-	=27-	=27-	=27	=27-	=27
.	.	4r	.	4r	.	16ff#\LL	.	.	.	.	.	.	.
.	.	.	.	.	.	16ee\	.	.	.	.	.	.	.
.	.	.	.	.	.	16gg\	.	.	.	.	.	.	.
.	.	.	.	.	.	16bb\JJ	.	.	.	.	.	.	.
.	.	8A/L	.	8f#/L	.	4dd\	.	.	.	.	.	.	.
.	.	8A/	.	8f#/	.	.	.	.	.	.	.	.	.
.	.	8A/	.	8g/	.	4cc#X\	.	.	.	.	.	.	.
.	.	8A/J	.	8g/J	.	.	.	.	.	.	.	.	.
=28-	=28	=28	=28	=28	=28	=28	=28	=28-	=28-	=28-	=28	=28-	=28
.	.	8B/L	.	8g/L	.	2dd\	.	.	.	.	.	.	.
.	.	16d/L	.	8f#/	.	.	.	.	.	.	.	.	.
.	.	16c#X/JJ	.	.	.	.	.	.	.	.	.	.	.
.	.	8B/L	.	8f#/	.	.	.	.	.	.	.	.	.
.	.	16A/L	.	8f#/	.	.	.	.	.	.	.	.	.
.	.	16G/JJ	.	.	.	.	.	.	.	.	.	.	.
.	.	8F#/L	.	8f#/	.	4a/	.	.	.	.	.	.	.
.	.	8D/J	.	8f#/J	.	.	.	.	.	.	.	.	.
!LO:LB:g=original	!	!	!	!	!	!	!	!	!	!	!	!	!
=29	=29	=29	=29	=29	=29	=29	=29	=29	=29	=29	=29	=29	=29
!	!	!	!LO:DY:rj	!	!LO:DY:rj	!	!	!	!	!	!	!	!
8D\L	.	8d\L	f	16f#\LL	f	4aa\	.	8r	8r	2ff#\	.	2aa\	.
.	.	.	.	16dd\	.	.	.	.	.	.	.	.	.
8F#\	.	8f#\	.	16dd\	.	.	.	8d/L	8a\L	.	.	.	.
.	.	.	.	16dd\JJ	.	.	.	.	.	.	.	.	.
!	!	!	!	!	!	!	!LO:DY:t=for&colon;	!	!	!	!	!	!
8D\	.	8d\	.	16f#\LL	.	4aa\	f	8d/	8a\	.	.	.	.
.	.	.	.	16dd\	.	.	.	.	.	.	.	.	.
8F#\	.	8f#\J	.	16dd\	.	.	.	8d/J	8a\J	.	.	.	.
.	.	.	.	16dd\JJ	.	.	.	.	.	.	.	.	.
!!mixed beam:problem
!	!	!	!	!LO:TX:t=P:problem=mixed beam	!	!	!	!	!	!	!	!	!
8D\	.	4d\	.	16g/LL	.	8r	.	4d/	4a\	8ff#\L	.	8aa\L	.
.	.	.	.	16gg\	.	.	.	.	.	.	.	.	.
8G\J	.	.	.	16gg\	.	8bb\	.	.	.	8gg\J	.	8bb\J	.
.	.	.	.	16gg\JJ	.	.	.	.	.	.	.	.	.
!	!	!	!	!LO:LB:g=original	!	!LO:LB:g=original	!	!	!	!	!	!	!
=30	=30	=30	=30	=30	=30	=30	=30	=30	=30	=30	=30	=30	=30
!	!	!	!	!	!	!	!	!LO:TX:a:t=2	!LO:TX:a:t=2	!	!	!	!
.	.	.	.	8qqff#/	.	.	.	.	.	8qqff#/	.	8qqff#/	.
8A\L	.	8r	.	2ee\	.	2gg\	.	1.r	1.r	2ee\	.	2gg\	.
8A\	.	4A/	.	.	.	.	.	.	.	.	.	.	.
8B\	.	.	.	.	.	.	.	.	.	.	.	.	.
8c#X\	.	4A/	.	.	.	.	.	.	.	.	.	.	.
8d\	.	.	.	4dd\	.	4ff#\	.	.	.	4dd\	.	4ff#\	.
8B\J	.	8B/	.	.	.	.	.	.	.	.	.	.	.
=31	=31	=31	=31	=31	=31	=31	=31	=31-	=31-	=31	=31	=31	=31
4G\	.	4G/	.	4b\	.	(>8ff#\L	.	.	.	4b\	.	8ff#\L	.
.	.	.	.	.	.	8ee\)	.	.	.	.	.	8ee\J	.
4r	.	4r	.	4r	.	(>8bb\	.	.	.	4r	.	4bb\	.
.	.	.	.	.	.	8b\)	.	.	.	.	.	.	.
4G#X\	.	4r	.	8r	.	(>8cc#X\	.	.	.	8r	.	8r	.
.	.	.	.	8b\	.	8dd\J)	.	.	.	8b\	.	8dd\	.
!	!	!LO:LB:g=original	!	!	!	!	!	!	!	!	!	!LO:LB:g=original	!
=32	=32	=32	=32	=32	=32	=32	=32	=32	=32	=32	=32	=32	=32
8A\L	.	8r	.	2b/	.	2dd\	.	8r	8r	2b/	.	2dd\	.
8A\	.	8e\L	.	.	.	.	.	8a\L	8a\L	.	.	.	.
8E\	.	8e\	.	.	.	.	.	8a\	8a\	.	.	.	.
8E\J	.	8e\J	.	.	.	.	.	8a\J	8a\J	.	.	.	.
4AA/	.	4e\	.	16a/LL	.	4cc#X\	.	4a\	4a\	4a/	.	4cc#X\	.
.	.	.	.	(<16g/	.	.	.	.	.	.	.	.	.
.	.	.	.	16f#/)	.	.	.	.	.	.	.	.	.
.	.	.	.	16e/JJ	.	.	.	.	.	.	.	.	.
!	!	!	!	!	!	!	!	!LO:LB:g=original	!LO:LB:g=original	!	!	!	!
=33	=33	=33	=33	=33	=33	=33	=33	=33	=33	=33	=33	=33	=33
!	!LO:DY:rj:t=p&colon;	!	!	!	!LO:DY:rj:t=p&colon;	!	!	!	!LO:SIC:v:s=4a	!	!	!	!
8D\L	p	4d\	.	16d/LL	p	4d/ 4a/ 4ff#/	.	4d/	4b\	4a/	.	4ff#\	.
.	.	.	.	16a/	.	.	.	.	.	.	.	.	.
8D\	.	.	.	16a/	.	.	.	.	.	.	.	.	.
.	.	.	.	16a/JJ	.	.	.	.	.	.	.	.	.
8F#\	.	4r	.	16d/LL	.	8r	.	4r	4r	4r	.	4r	.
.	.	.	.	16a/	.	.	.	.	.	.	.	.	.
!!mixed beam:problem
!	!	!	!	!	!	!LO:TX:t=P:problem=mixed beam	!	!	!	!	!	!	!
8F#\	.	.	.	16a/	.	8aa\L	.	.	.	.	.	.	.
.	.	.	.	16a/JJ	.	.	.	.	.	.	.	.	.
8F#\	.	4r	.	16d/LL	.	8a/	.	4r	4r	4r	.	4r	.
.	.	.	.	16a/	.	.	.	.	.	.	.	.	.
!	!	!	!	!	!	!	!LO:DY:rj:t=p&colon;	!	!	!	!	!	!
8F#\J	.	.	.	16a/	.	8ccn/J	p	.	.	.	.	.	.
.	.	.	.	16a/JJ	.	.	.	.	.	.	.	.	.
=34	=34	=34	=34	=34	=34	=34	=34	=34	=34	=34	=34	=34	=34
!	!	!LO:TX:a:t=1	!	!	!	!	!	!LO:TX:a:t=1	!LO:TX:a:t=1	!LO:TX:a:t=1	!	!LO:TX:a:t=1	!
8G\L	.	2.r	.	16d/LL	.	2b\	.	2.r	2.r	2.r	.	2.r	.
.	.	.	.	16g/	.	.	.	.	.	.	.	.	.
8G\	.	.	.	16g/	.	.	.	.	.	.	.	.	.
.	.	.	.	16g/JJ	.	.	.	.	.	.	.	.	.
8G\	.	.	.	16d/LL	.	.	.	.	.	.	.	.	.
.	.	.	.	16b/	.	.	.	.	.	.	.	.	.
8G\	.	.	.	16b/	.	.	.	.	.	.	.	.	.
.	.	.	.	16b/JJ	.	.	.	.	.	.	.	.	.
8G\	.	.	.	16d/LL	.	4r	.	.	.	.	.	.	.
.	.	.	.	16g/	.	.	.	.	.	.	.	.	.
8G\J	.	.	.	16g/	.	.	.	.	.	.	.	.	.
.	.	.	.	16g/JJ	.	.	.	.	.	.	.	.	.
!LO:LB:g=original	!	!	!	!	!	!	!	!	!	!	!	!	!
=35	=35	=35	=35	=35	=35	=35	=35	=35	=35	=35	=35	=35	=35
!	!LO:DY:rj:t=for	!	!	!	!LO:DY:rj:t=for	!	!LO:DY:rj:t=for	!	!	!	!	!	!
8G\L	f	4g\	.	16d/LL	f	4d/ 4b/ 4gg/	f	4g\	4b\	4b\	.	4gg\	.
.	.	.	.	16b/	.	.	.	.	.	.	.	.	.
8G\	.	.	.	16b/	.	.	.	.	.	.	.	.	.
.	.	.	.	16b/JJ	.	.	.	.	.	.	.	.	.
8G\	.	4r	.	16d/LL	.	8r	.	4r	4r	4r	.	4r	.
.	.	.	.	16g/	.	.	.	.	.	.	.	.	.
8G\	.	.	.	16g/	.	8bb\L	.	.	.	.	.	.	.
.	.	.	.	16g/JJ	.	.	.	.	.	.	.	.	.
!	!LO:DY:t=p&colon;	!	!	!	!	!	!LO:DY:rj:t=p&colon;	!	!	!	!	!	!
8A\	p	4r	.	16d/LL	.	8cc#X\	p	4r	4r	4r	.	4r	.
.	.	.	.	16g/	.	.	.	.	.	.	.	.	.
8A\J	.	.	.	16g/	.	8ee\J	.	.	.	.	.	.	.
.	.	.	.	16g/JJ	.	.	.	.	.	.	.	.	.
!	!	!	!	!LO:LB:g=original	!	!	!	!	!	!LO:LB:g=original	!	!	!
=36	=36	=36	=36	=36	=36	=36	=36	=36	=36	=36	=36	=36	=36
!	!	!LO:TX:a:t=1	!	!	!	!	!	!LO:TX:a:t=1	!LO:TX:a:t=1	!LO:TX:a:t=1	!	!LO:TX:a:t=1	!
.	.	.	.	.	.	8qqee/	.	.	.	.	.	.	.
8B\L	.	2.r	.	16f#\LL	.	2dd\	.	2.r	2.r	2.r	.	2.r	.
.	.	.	.	16dd\	.	.	.	.	.	.	.	.	.
8B\	.	.	.	16dd\	.	.	.	.	.	.	.	.	.
.	.	.	.	16dd\JJ	.	.	.	.	.	.	.	.	.
8B\	.	.	.	16d/LL	.	.	.	.	.	.	.	.	.
.	.	.	.	16f#/	.	.	.	.	.	.	.	.	.
8B\	.	.	.	16f#/	.	.	.	.	.	.	.	.	.
.	.	.	.	16f#/JJ	.	.	.	.	.	.	.	.	.
8B\	.	.	.	16d/LL	.	4r	.	.	.	.	.	.	.
.	.	.	.	16f#/	.	.	.	.	.	.	.	.	.
8B\J	.	.	.	16f#/	.	.	.	.	.	.	.	.	.
.	.	.	.	16f#/JJ	.	.	.	.	.	.	.	.	.
!	!	!	!	!	!	!LO:LB:g=original	!	!	!	!	!	!	!
=37	=37	=37	=37	=37	=37	=37	=37	=37	=37	=37	=37	=37	=37
!	!	!	!	!	!LO:DY:rj:t=for	!	!LO:DY:rj:t=for	!	!	!	!	!	!
8F#\L	.	4f#\	.	16d/LL	f	4d\ 4a\ 4cccn\	f	4d/	4a\	2a/	.	2dd\	.
.	.	.	.	16a/	.	.	.	.	.	.	.	.	.
8F#\	.	.	.	16a/	.	.	.	.	.	.	.	.	.
.	.	.	.	16a/JJ	.	.	.	.	.	.	.	.	.
8F#\	.	4r	.	16d/LL	.	8r	.	4r	4r	.	.	.	.
.	.	.	.	16a/	.	.	.	.	.	.	.	.	.
8F#\	.	.	.	16a/	.	8ccc\L	.	.	.	.	.	.	.
.	.	.	.	16a/JJ	.	.	.	.	.	.	.	.	.
!!mixed beam:problem
!	!	!	!	!LO:TX:t=P:problem=mixed beam	!	!	!LO:DY:rj:t=p&colon;	!	!	!	!	!	!
8F#\	.	4r	.	16d/LL	.	8bb\	p	4r	4r	4r	.	4r	.
.	.	.	.	16dd\	.	.	.	.	.	.	.	.	.
8F#\J	.	.	.	16dd\	.	8aa#X\J	.	.	.	.	.	.	.
.	.	.	.	16dd\JJ	.	.	.	.	.	.	.	.	.
=38	=38	=38	=38	=38	=38	=38	=38	=38	=38	=38	=38	=38	=38
*2\right	*	*	*	*	*	*	*	*	*	*	*	*	*
!	!	!LO:TX:a:t=2	!	!	!	!	!	!LO:TX:a:t=2	!LO:TX:a:t=2	!LO:TX:a:t=2	!	!LO:TX:a:t=2	!
2G\	.	1.r	.	4dd\	.	8aa#X\L	.	1.r	1.r	1.r	.	1.r	.
.	.	.	.	.	.	8bb\	.	.	.	.	.	.	.
.	.	.	.	8f#/L	.	8aan\	.	.	.	.	.	.	.
.	.	.	.	8b/	.	8gg\	.	.	.	.	.	.	.
4r	.	.	.	8a/	.	8ff#\	.	.	.	.	.	.	.
.	.	.	.	8g/J	.	8ee\J	.	.	.	.	.	.	.
=39	=39	=39-	=39	=39	=39	=39	=39	=39-	=39-	=39-	=39	=39-	=39
4r	.	.	.	16f#/LL	.	8.dd\L	.	.	.	.	.	.	.
.	.	.	.	16a/	.	.	.	.	.	.	.	.	.
.	.	.	.	16f#/	.	.	.	.	.	.	.	.	.
.	.	.	.	16a/JJ	.	16a\Jk	.	.	.	.	.	.	.
4A\	.	.	.	16d/LL	.	4ff#\	.	.	.	.	.	.	.
.	.	.	.	16a/	.	.	.	.	.	.	.	.	.
.	.	.	.	16d/	.	.	.	.	.	.	.	.	.
.	.	.	.	16a/JJ	.	.	.	.	.	.	.	.	.
4AA/	.	.	.	16c#X/LL	.	4ee\	.	.	.	.	.	.	.
.	.	.	.	16e/	.	.	.	.	.	.	.	.	.
.	.	.	.	16c#/	.	.	.	.	.	.	.	.	.
.	.	.	.	16e/JJ	.	.	.	.	.	.	.	.	.
!	!	!	!	!LO:LB:g=original	!	!	!	!	!	!	!	!	!
=40	=40	=40	=40	=40	=40	=40	=40	=40	=40	=40	=40	=40	=40
!	!LO:DY:t=for	!	!LO:DY:t=for&colon;	!	!LO:DY:rj:t=for&colon;	!	!LO:DY:rj:t=for	!	!	!	!	!	!
8r	f	8r	f	16aa\LL	f	16aa\LL	f	4d/	4a\	2.ff#\	.	2.aa\	.
.	.	.	.	16aa\	.	16aa\	.	.	.	.	.	.	.
8D\L	.	8f#\L	.	16aa\	.	16aa\	.	.	.	.	.	.	.
.	.	.	.	16aa\JJ	.	16aa\JJ	.	.	.	.	.	.	.
*	*	*	*	*tremolo	*	*	*	*	*	*	*	*	*
8F#\	.	8a\	.	16aa\LL	.	16aa\LL	.	4r	4r	.	.	.	.
.	.	.	.	16aa\	.	16aa\	.	.	.	.	.	.	.
8A\	.	8g\	.	16aa\	.	16aa\	.	.	.	.	.	.	.
.	.	.	.	16aa\JJ	.	16aa\JJ	.	.	.	.	.	.	.
8c#X\	.	8e\	.	16aa\LL	.	16aa\LL	.	4r	4r	.	.	.	.
.	.	.	.	16aa\	.	16aa\	.	.	.	.	.	.	.
8d\J	.	8f#\J	.	16aa\	.	16aa\	.	.	.	.	.	.	.
.	.	.	.	16aa\JJ	.	16aa\JJ	.	.	.	.	.	.	.
*	*	*	*	*Xtremolo	*	*	*	*	*	*	*	*	*
=41	=41	=41	=41	=41	=41	=41	=41	=41	=41	=41	=41	=41	=41
!	!	!	!	!	!	!	!	!LO:TX:a:t=1	!LO:TX:a:t=1	!	!	!	!
4e\	.	4c#X\	.	16aa\LL	.	16aa\LL	.	2.r	2.r	8ff#\L	.	8aa\L	.
.	.	.	.	16gg\	.	16gg\	.	.	.	.	.	.	.
.	.	.	.	16bb\	.	16bb\	.	.	.	8ee\J	.	[>8gg\J	.
.	.	.	.	16aa\JJ	.	16aa\JJ	.	.	.	.	.	.	.
4r	.	4r	.	16gg\LL	.	16gg\LL	.	.	.	2ee\	.	2gg\]	.
.	.	.	.	16ff#\	.	16ff#\	.	.	.	.	.	.	.
.	.	.	.	16ee\	.	16ee\	.	.	.	.	.	.	.
.	.	.	.	16dd\JJ	.	16dd\JJ	.	.	.	.	.	.	.
!	!	!	!	!LO:SIC:v:s=16cc#	!	!	!	!	!	!	!	!	!
8r	.	8r	.	16cc\LL	.	16cc#X\LL	.	.	.	.	.	.	.
.	.	.	.	16b\	.	16b\	.	.	.	.	.	.	.
8C#X/	.	8e\	.	16a\	.	16a\	.	.	.	.	.	.	.
.	.	.	.	16g\JJ	.	16g\JJ	.	.	.	.	.	.	.
!LO:LB:g=original	!	!LO:LB:g=original	!	!	!	!LO:LB:g=original	!	!	!	!	!	!LO:LB:g=original	!
=42	=42	=42	=42	=42	=42	=42	=42	=42	=42	=42	=42	=42	=42
!!mixed beam:problem
!	!	!	!	!	!	!LO:TX:t=P:problem=mixed beam	!	!	!	!	!	!	!
8D\L	.	8d\L	.	16aa\LL	.	16f#/LL	.	4d/	4a\	4dd\	.	4ff#\	.
.	.	.	.	16aa\	.	16aa\	.	.	.	.	.	.	.
8D\	.	8f#\	.	16aa\	.	16aa\	.	.	.	.	.	.	.
.	.	.	.	16aa\JJ	.	16aa\JJ	.	.	.	.	.	.	.
*	*	*	*	*tremolo	*	*	*	*	*	*	*	*	*
8F#\	.	8a\	.	16aa\LL	.	16aa\LL	.	4r	4r	4ff#\	.	2aa\	.
.	.	.	.	16aa\	.	16aa\	.	.	.	.	.	.	.
8A\	.	8g\	.	16aa\	.	16aa\	.	.	.	.	.	.	.
.	.	.	.	16aa\JJ	.	16aa\JJ	.	.	.	.	.	.	.
*	*	*	*	*	*	*tremolo	*	*	*	*	*	*	*
8c#X\	.	8e\	.	16aa\LL	.	16aa\LL	.	4r	4r	4ff#\	.	.	.
.	.	.	.	16aa\	.	16aa\	.	.	.	.	.	.	.
8d\J	.	8f#\J	.	16aa\	.	16aa\	.	.	.	.	.	.	.
.	.	.	.	16aa\JJ	.	16aa\JJ	.	.	.	.	.	.	.
*	*	*	*	*Xtremolo	*	*Xtremolo	*	*	*	*	*	*	*
=43	=43	=43	=43	=43	=43	=43	=43	=43	=43	=43	=43	=43	=43
!	!	!	!	!	!	!	!	!LO:TX:a:t=1	!LO:TX:a:t=1	!	!	!	!
4e\	.	4c#X\	.	16aa\LL	.	16aa\LL	.	2.r	2.r	8ff#\L	.	8aa\L	.
.	.	.	.	16gg\	.	16gg\	.	.	.	.	.	.	.
.	.	.	.	16bb\	.	16bb\	.	.	.	8ee\J	.	8gg\J	.
.	.	.	.	16aa\JJ	.	16aa\JJ	.	.	.	.	.	.	.
4r	.	4r	.	16gg\LL	.	16gg\LL	.	.	.	2ee\	.	2gg\	.
.	.	.	.	16ff#\	.	16ff#\	.	.	.	.	.	.	.
.	.	.	.	16ee\	.	16ee\	.	.	.	.	.	.	.
.	.	.	.	16dd\JJ	.	16dd\JJ	.	.	.	.	.	.	.
!	!	!	!	!LO:SIC:v:s=16cc#	!	!	!	!	!	!	!	!	!
8r	.	8r	.	16cc\LL	.	16cc#X\LL	.	.	.	.	.	.	.
.	.	.	.	16b\	.	16b\	.	.	.	.	.	.	.
8c#X\	.	8e\	.	16a\	.	16a\	.	.	.	.	.	.	.
.	.	.	.	16g\JJ	.	16g\JJ	.	.	.	.	.	.	.
!	!	!	!	!LO:LB:g=original	!	!	!	!	!	!	!	!	!
=44	=44	=44	=44	=44	=44	=44	=44	=44	=44	=44	=44	=44	=44
!!mixed beam:problem
!	!	!	!	!LO:TX:t=P:problem=mixed beam	!	!LO:TX:t=P:problem=mixed beam	!	!	!	!	!	!	!
4d\	.	8d\L	.	8f#/L	.	8f#/L	.	4d/	4a\	4dd\	.	4ff#\	.
.	.	8a\	.	8ff#\	.	8ddd\J	.	.	.	.	.	.	.
8r	.	8b\	.	8gg\	.	16ddd\LL	.	4r	4r	8r	.	2ddd\	.
.	.	.	.	.	.	16ddd\	.	.	.	.	.	.	.
8D\L	.	8a\	.	8ff#\	.	16ddd\	.	.	.	8ff#\L	.	.	.
.	.	.	.	.	.	16ddd\JJ	.	.	.	.	.	.	.
8E\	.	8g\	.	8gg\	.	16ddd\LL	.	4r	4r	8gg\	.	.	.
.	.	.	.	.	.	16ddd\	.	.	.	.	.	.	.
8F#\J	.	8f#\J	.	8aa\J	.	16ddd\	.	.	.	8ff#\J	.	.	.
.	.	.	.	.	.	16ddd\JJ	.	.	.	.	.	.	.
!	!	!	!	!	!	!	!	!LO:LB:g=original	!	!	!	!	!
=45	=45	=45	=45	=45	=45	=45	=45	=45	=45	=45	=45	=45	=45
!!mixed beam:problem
!	!	!	!	!LO:TX:t=P:problem=mixed beam	!	!	!	!	!	!	!	!	!
4G\	.	4G/	.	8bb\L	.	16ddd\LL	.	4g\	4b\	4ee\	.	4ddd\	.
.	.	.	.	.	.	16ee\	.	.	.	.	.	.	.
.	.	.	.	8b/J	.	16ee\	.	.	.	.	.	.	.
.	.	.	.	.	.	16ee\JJ	.	.	.	.	.	.	.
4B\	.	4B/	.	8r	.	16ee\LL	.	4r	4r	2g/	.	2ee\	.
.	.	.	.	.	.	16ee\	.	.	.	.	.	.	.
.	.	.	.	16g/LL	.	16ee\	.	.	.	.	.	.	.
.	.	.	.	16a/JJ	.	16ee\JJ	.	.	.	.	.	.	.
!!mixed beam:problem
!	!	!	!	!LO:TX:t=P:problem=mixed beam	!	!	!	!	!	!	!	!	!
4A\	.	4A/	.	8b\L	.	16ee\LL	.	4r	4r	.	.	.	.
.	.	.	.	.	.	16ee\	.	.	.	.	.	.	.
.	.	.	.	8B/J	.	16ee\	.	.	.	.	.	.	.
.	.	.	.	.	.	16ee\JJ	.	.	.	.	.	.	.
!	!	!	!	!	!	!LO:LB:g=original	!	!	!LO:LB:g=original	!	!	!	!
=46	=46	=46	=46	=46	=46	=46	=46	=46	=46	=46	=46	=46	=46
4G\	.	4G/	.	4b\	.	(>16ee\LL	.	4g\	4b\	4b\	.	4ee\	.
.	.	.	.	.	.	16gg\)	.	.	.	.	.	.	.
.	.	.	.	.	.	(>16gg\	.	.	.	.	.	.	.
.	.	.	.	.	.	16bb\JJ)	.	.	.	.	.	.	.
4r	.	4r	.	(>16gg\LL	.	(>16bb\LL	.	4r	4r	4r	.	4gg\	.
.	.	.	.	16ff#\	.	16aa\)	.	.	.	.	.	.	.
!	!	!	!	!LO:SIC:v:s=16ff#	!	!	!	!	!	!	!	!	!
.	.	.	.	(>16ee\)	.	(>16aa\	.	.	.	.	.	.	.
!	!	!	!	!LO:SIC:v:s=16ee	!	!	!	!	!	!	!	!	!
.	.	.	.	16dd\JJ)	.	16gg\JJ)	.	.	.	.	.	.	.
4A\	.	8r	.	16b/LL	.	(>16gg\LL	.	4r	4r	4g/	.	4ee\	.
.	.	.	.	16a/	.	16ff#\)	.	.	.	.	.	.	.
.	.	8c#X\	.	16a/	.	(>16ff#\	.	.	.	.	.	.	.
.	.	.	.	16g/JJ	.	16ee\JJ)	.	.	.	.	.	.	.
!	!	!	!	!	!	!	!	!	!	!LO:LB:g=original	!	!	!
=47	=47	=47	=47	=47	=47	=47	=47	=47	=47	=47	=47	=47	=47
!	!	!	!LO:DY:rj:t=p&colon;	!	!LO:DY:rj:t=p&colon;	!	!LO:DY:t=p&colon;	!LO:TX:a:t=3	!LO:TX:a:t=3	!LO:TX:a:t=3&colon;	!	!LO:TX:a:t=3	!
4D\	.	8d\L	p	8f#/L	p	8dd\	p	1.r	1.r	1.r	.	1.r	.
.	.	8d\	.	8f#/	.	4dd\	.	.	.	.	.	.	.
8r	.	8e\	.	8g/	.	.	.	.	.	.	.	.	.
8D\L	.	8d\	.	8f#/	.	4dd\	.	.	.	.	.	.	.
8E\	.	8e\	.	8g/	.	.	.	.	.	.	.	.	.
8F#\J	.	8f#\J	.	8a/J	.	8dd\	.	.	.	.	.	.	.
=48	=48	=48	=48	=48	=48	=48	=48	=48-	=48-	=48-	=48	=48-	=48
!!mixed beam:problem
!	!	!	!	!LO:TX:t=P:problem=mixed beam	!LO:DY:rj:t=p&colon;	!	!	!	!	!	!	!	!
4G\	.	4g\	.	8b\L	p	8dd\	.	.	.	.	.	.	.
.	.	.	.	8B/J	.	4e/	.	.	.	.	.	.	.
4B\	.	4B/	.	8r	.	.	.	.	.	.	.	.	.
.	.	.	.	16G/LL	.	4e/	.	.	.	.	.	.	.
.	.	.	.	16A/JJ	.	.	.	.	.	.	.	.	.
4A\	.	4A/	.	8B/L	.	.	.	.	.	.	.	.	.
.	.	.	.	8B/J	.	8e/	.	.	.	.	.	.	.
!LO:LB:g=original	!	!LO:LB:g=original	!	!LO:LB:g=original	!	!	!	!	!	!	!	!	!
=49	=49	=49	=49	=49	=49	=49	=49	=49-	=49-	=49-	=49	=49-	=49
4G\	.	4G/	.	8B/L	.	(<16e/LL	.	2.r	2.r	2.r	.	2.r	.
.	.	.	.	.	.	16g/)	.	.	.	.	.	.	.
.	.	.	.	8g/J	.	(<16g/	.	.	.	.	.	.	.
.	.	.	.	.	.	16b/JJ)	.	.	.	.	.	.	.
4r	.	4r	.	16g/LL	.	(<16b/LL	.	.	.	.	.	.	.
.	.	.	.	(<16f#/	.	16a/)	.	.	.	.	.	.	.
.	.	.	.	16f#/	.	(<16a/	.	.	.	.	.	.	.
.	.	.	.	16e/JJ)	.	16g/JJ)	.	.	.	.	.	.	.
4A\	.	4A/	.	16e/LL	.	(<16g/LL	.	.	.	.	.	.	.
.	.	.	.	16d/	.	16f#/)	.	.	.	.	.	.	.
.	.	.	.	16d/	.	(<16f#/	.	.	.	.	.	.	.
.	.	.	.	16c#X/JJ	.	16e/JJ)	.	.	.	.	.	.	.
=50	=50	=50	=50	=50	=50	=50	=50	=50	=50	=50	=50	=50	=50
!	!	!	!LO:DY:rj:t=p&colon;	!	!LO:DY:rj:t=p&colon;	!	!LO:DY:rj:t=for	!	!	!	!	!	!
4D\	f	8A\L	p	16d/LL	p	4d/ 4a/ 4ff#/	f	4d/	4a\	4f#/	.	2dd\	.
.	.	.	.	16a/	.	.	.	.	.	.	.	.	.
.	.	8d\	.	16f#/	.	.	.	.	.	.	.	.	.
.	.	.	.	16a/JJ	.	.	.	.	.	.	.	.	.
4r	.	8d\	.	16d/LL	.	8r	.	4r	4r	2a/	.	.	.
.	.	.	.	16a/	.	.	.	.	.	.	.	.	.
!!mixed beam:problem
!	!	!	!	!	!	!LO:TX:t=P:problem=mixed beam	!	!	!	!	!	!	!
.	.	8d\	.	16f#/	.	8aa\L	p	.	.	.	.	.	.
.	.	.	.	16a/JJ	.	.	.	.	.	.	.	.	.
4r	.	8d\	.	16d/LL	.	8a/	.	4r	4r	.	.	4ccn\	.
.	.	.	.	16a/	.	.	.	.	.	.	.	.	.
.	.	8d\J	.	16f#/	.	8ccn/J	.	.	.	.	.	.	.
.	.	.	.	16a/JJ	.	.	.	.	.	.	.	.	.
!	!	!	!	!	!	!LO:LB:g=original	!	!	!	!	!	!	!
=51	=51	=51	=51	=51	=51	=51	=51	=51	=51	=51	=51	=51	=51
!LO:TX:a:t=1	!	!	!	!	!	!	!	!LO:TX:a:t=1	!LO:TX:a:t=1	!	!	!	!
.	.	.	.	.	.	8qqcc/	.	.	.	.	.	.	.
2.r	.	8D/L	.	16d/LL	.	2b\	.	2.r	2.r	2.g/	.	2.b\	.
.	.	.	.	16b/	.	.	.	.	.	.	.	.	.
.	.	8D/	.	16g/	.	.	.	.	.	.	.	.	.
.	.	.	.	16b/JJ	.	.	.	.	.	.	.	.	.
.	.	8D/	.	16d/LL	.	.	.	.	.	.	.	.	.
.	.	.	.	16b/	.	.	.	.	.	.	.	.	.
.	.	8D/	.	16g/	.	.	.	.	.	.	.	.	.
.	.	.	.	16b/JJ	.	.	.	.	.	.	.	.	.
.	.	8D/	.	16d/LL	.	4r	.	.	.	.	.	.	.
.	.	.	.	16b/	.	.	.	.	.	.	.	.	.
.	.	8D/J	.	16g/	.	.	.	.	.	.	.	.	.
.	.	.	.	16b/JJ	.	.	.	.	.	.	.	.	.
=52	=52	=52	=52	=52	=52	=52	=52	=52	=52	=52	=52	=52	=52
!	!	!	!	!	!LO:DY:rj:t=for	!	!	!	!	!	!	!	!
4G\	.	8D/L	.	16d/LL	f	4e\ 4b\ 4gg\	f	4g\	4b\	2b/	.	2gg\	.
.	.	.	.	16b/	.	.	.	.	.	.	.	.	.
.	.	8D/	.	16g/	.	.	.	.	.	.	.	.	.
.	.	.	.	16b/JJ	.	.	.	.	.	.	.	.	.
4r	.	8D/	.	16d/LL	.	8r	.	4r	4r	.	.	.	.
.	.	.	.	16b/	.	.	.	.	.	.	.	.	.
!	!	!	!	!	!	!	!LO:DY:rj:t=p&colon;	!	!	!	!	!	!
.	.	8D/	.	16g/	p	8bb\L	p	.	.	.	.	.	.
.	.	.	.	16b/JJ	.	.	.	.	.	.	.	.	.
4r	.	8D/	.	16A/LL	.	8cc#X\	.	4r	4r	4g/	.	4cc#X\	.
.	.	.	.	16g/	.	.	.	.	.	.	.	.	.
.	.	8D/J	.	16e/	.	8ee\J	.	.	.	.	.	.	.
.	.	.	.	16g/JJ	.	.	.	.	.	.	.	.	.
!	!	!	!	!LO:LB:g=original	!	!	!	!	!	!	!	!LO:LB:g=original	!
=53	=53	=53	=53	=53	=53	=53	=53	=53	=53	=53	=53	=53	=53
!LO:TX:a:t=1	!	!	!	!	!	!	!	!LO:TX:a:t=1	!LO:TX:a:t=1	!LO:SIC:v:s=2.f#	!	!	!
.	.	.	.	.	.	8qqee/	.	.	.	.	.	.	.
2.r	.	8D/L	.	16d/LL	.	2dd\	.	2.r	2.r	2.g/	.	2.dd\	.
.	.	.	.	16a/	.	.	.	.	.	.	.	.	.
.	.	8D/	.	16f#/	.	.	.	.	.	.	.	.	.
.	.	.	.	16a/JJ	.	.	.	.	.	.	.	.	.
.	.	8D/	.	16d/LL	.	.	.	.	.	.	.	.	.
.	.	.	.	16a/	.	.	.	.	.	.	.	.	.
.	.	8D/	.	16f#/	.	.	.	.	.	.	.	.	.
.	.	.	.	16a/JJ	.	.	.	.	.	.	.	.	.
.	.	8D/	.	16d/LL	.	4r	.	.	.	.	.	.	.
.	.	.	.	16a/	.	.	.	.	.	.	.	.	.
.	.	8D/J	.	16f#/	.	.	.	.	.	.	.	.	.
.	.	.	.	16a/JJ	.	.	.	.	.	.	.	.	.
=54	=54	=54	=54	=54	=54	=54	=54	=54	=54	=54	=54	=54	=54
!	!	!	!LO:DY:rj:t=for	!	!	!	!	!	!	!	!	!	!
4D\	.	8D/L	f	16d/LL	.	4d/ 4a/ 4ff#/	.	4d/	4a\	2f#/	.	2aa\	.
.	.	.	.	16a/	.	.	.	.	.	.	.	.	.
.	.	8D/	.	16f#/	.	.	.	.	.	.	.	.	.
.	.	.	.	16a/JJ	.	.	.	.	.	.	.	.	.
4r	.	8D/	.	16d/LL	.	8r	.	4r	4r	.	.	.	.
.	.	.	.	16a/	.	.	.	.	.	.	.	.	.
.	.	8D/	.	16f#/	.	8a/L	.	.	.	.	.	.	.
.	.	.	.	16a/JJ	.	.	.	.	.	.	.	.	.
4r	.	8D/	.	16d/LL	.	8A/	.	4r	4r	4a/	.	4ccn\	.
.	.	.	.	16a/	.	.	.	.	.	.	.	.	.
.	.	8D/J	.	16f#/	.	8cn/J	.	.	.	.	.	.	.
.	.	.	.	16a/JJ	.	.	.	.	.	.	.	.	.
=55	=55	=55	=55	=55	=55	=55	=55	=55	=55	=55	=55	=55	=55
4r	.	8D/L	.	16d/LL	.	4B/	.	4r	4r	4g/	.	4b\	.
.	.	.	.	16b/	.	.	.	.	.	.	.	.	.
.	.	8D/	.	16g/	.	.	.	.	.	.	.	.	.
.	.	.	.	16b/JJ	.	.	.	.	.	.	.	.	.
8F#\L	.	8D/ 8F#/	.	8a/	.	16ddd\LL	.	4d/	4a\	4a/	.	2ddd\	.
.	.	.	.	.	.	16ccc#X\	.	.	.	.	.	.	.
8F#\	.	8F#/	.	4a/	.	16bb\	.	.	.	.	.	.	.
.	.	.	.	.	.	16aa\JJ	.	.	.	.	.	.	.
8F#\	.	8F#/	.	.	.	16gg\LL	.	4d/	4a\	4aa\	.	.	.
.	.	.	.	.	.	16ff#\	.	.	.	.	.	.	.
8F#\J	.	8F#/J	.	8a/	.	16ee\	.	.	.	.	.	.	.
.	.	.	.	.	.	16dd\JJ	.	.	.	.	.	.	.
!	!	!LO:LB:g=original	!	!	!	!	!	!	!	!	!	!	!
=56	=56	=56	=56	=56	=56	=56	=56	=56	=56	=56	=56	=56	=56
!!mixed beam:problem
!LO:TX:t=P:problem=mixed beam	!	!	!	!LO:TX:t=P:problem=mixed beam	!LO:DY:rj:t=for&colon;	!	!	!	!	!	!	!	!
8G\L	.	8G/L	.	16g/LL	f	8.bb\L	.	4r	4r	4gg\	.	4bb\	.
.	.	.	.	16gg\	.	.	.	.	.	.	.	.	.
8G\	.	8G/	.	16ff#\	.	.	.	.	.	.	.	.	.
.	.	.	.	16ee\JJ	.	32aa\LL	.	.	.	.	.	.	.
.	.	.	.	.	.	32gg\JJJ	.	.	.	.	.	.	.
8A\	.	8A/	.	8dd\	.	4ff#\	.	4a\	8dd\	4.dd\	.	4ff#\	.
8A\	.	8A/	.	4dd\	.	.	.	.	4dd\	.	.	.	.
8AA/	.	8A/	.	.	.	4ee\	.	4a\	.	.	.	4ee\	.
!	!	!	!	!	!	!	!	!	!	!LO:SIC:v:s=8cc#	!	!	!
8AA/J	.	8A/J	.	8cc#X\	.	.	.	.	8cc#X\	8cc\	.	.	.
!LO:LB:g=original	!	!	!	!LO:LB:g=original	!	!LO:LB:g=original	!	!	!	!	!	!	!
=57	=57	=57	=57	=57	=57	=57	=57	=57	=57	=57	=57	=57	=57
!	!	!	!	!	!	!	!	!LO:TX:a:t=1	!LO:TX:a:t=1	!	!	!LO:SIC:v:s=16dd#	!
8F#\L	.	8a\L	.	(>4dd#X\	.	4dd#X\	.	2.r	2.r	4dd#X\	.	4dd\	.
8F#\	.	8a\	.	.	.	.	.	.	.	.	.	.	.
8G\	.	8b\	.	8.ee\L)	.	8.ee\L	.	.	.	4ee\	.	4ee\	.
8G\	.	8b\	.	.	.	.	.	.	.	.	.	.	.
.	.	.	.	16ff#\K	.	16ff#\K	.	.	.	.	.	.	.
8G\	.	8b\	.	8.gg\	.	8.gg\	.	.	.	4r	.	4r	.
8G\J	.	8b\J	.	.	.	.	.	.	.	.	.	.	.
.	.	.	.	16aa\Jk	.	16aa\Jk	.	.	.	.	.	.	.
!	!	!	!	!	!	!	!	!LO:LB:g=original	!LO:LB:g=original	!	!	!	!
=58	=58	=58	=58	=58	=58	=58	=58	=58	=58	=58	=58	=58	=58
!!mixed beam:problem
!LO:TX:t=P:problem=mixed beam	!	!	!	!	!	!	!	!	!	!	!	!	!
8G\L	.	8G/L	.	8.gg\L	.	8.bb\L	.	4r	4r	4gg\	.	4bb\	.
8G\	.	8G/	.	.	.	.	.	.	.	.	.	.	.
.	.	.	.	32ff#\LL	.	(>32aa\LL	.	.	.	.	.	.	.
.	.	.	.	32ee\JJJ	.	32gg\JJJ)	.	.	.	.	.	.	.
8A\	.	8A/	.	4dd\	.	4ff#\	.	4a\	4a\	4dd\	.	4ff#\	.
8A\	.	8A/	.	.	.	.	.	.	.	.	.	.	.
!	!	!	!	!	!	!	!	!	!	!LO:SIC:v:s=4cc#	!	!	!
8AA/	.	8A/	.	16cc#X\LL	.	4ee\	.	4a\	4a\	4cc\	.	4ee\	.
.	.	.	.	16b\	.	.	.	.	.	.	.	.	.
8AA/J	.	8A/J	.	16a\	.	.	.	.	.	.	.	.	.
.	.	.	.	16g\JJ	.	.	.	.	.	.	.	.	.
=59	=59	=59	=59	=59	=59	=59	=59	=59	=59	=59	=59	=59	=59
8D\L	.	4d\	.	4f#/	.	4dd\	.	4d/	4a\	4f#/	.	4dd\	.
8F#\	.	.	.	.	.	.	.	.	.	.	.	.	.
8A\	.	4d\	.	4d\ 4a\ 4ff#\	.	4ff#\ 4ddd\	.	8r	8r	4dd\	.	4ff#\	.
8d\	.	.	.	.	.	.	.	8d/L	8a\L	.	.	.	.
8A\	.	4d\	.	4d\ 4a\ 4ff#\	.	4ff#\ 4ddd\	.	8d/	8a\	4dd\	.	4ff#\	.
8F#\J	.	.	.	.	.	.	.	8d/J	8a\J	.	.	.	.
!	!	!	!	!	!	!	!	!	!	!LO:LB:g=original	!	!	!
=60	=60	=60	=60	=60	=60	=60	=60	=60	=60	=60	=60	=60	=60
8D\L	.	4d\	.	4d\ 4a\ 4ff#\	.	4ff#\ 4ddd\	.	4d/	4a\	4dd\	.	8ff#\L	.
8F#\	.	.	.	.	.	.	.	.	.	.	.	8aa\J	.
8A\	.	8r	.	8r	.	8r	.	8r	8r	4ff#\	.	4aa\	.
!	!	!	!	!LO:TX:t=P:problem=8d\ z oddzielną laską	!	!	!	!	!	!	!	!	!
8d\	.	8d\L	.	8d\L 8ff#\	.	16dd\LL	.	8d/L	8a\L	.	.	.	.
.	.	.	.	.	.	16dd\JJ	.	.	.	.	.	.	.
8A\	.	8d\	.	8ff#\	.	16ff#\LL	.	8d/	8a\	4ff#\	.	4ddd\	.
.	.	.	.	.	.	16ff#\	.	.	.	.	.	.	.
8F#\J	.	8d\J	.	8ff#\J	.	16aa\	.	8d/J	8a\J	.	.	.	.
.	.	.	.	.	.	16aa\JJ	.	.	.	.	.	.	.
=61	=61	=61	=61	=61	=61	=61	=61	=61	=61	=61	=61	=61	=61
*	*	*	*	*	*	*	*	*	*2\right	*	*	*	*
!	!	!	!	!	!	!	!	!	!	!LO:TX:a:t=61.	!	!	!
8D/L	.	4d\	.	4d\ 4a\ 4ff#\	.	4ddd\	.	2d/	2a\	2.ff#\	.	2ddd\	.
8AA/J	.	.	.	.	.	.	.	.	.	.	.	.	.
4DD/	.	4D/	.	4d/	.	4d/	.	.	.	.	.	.	.
!LO:TX:a:t=61	!	!LO:TX:a:t=61	!	!LO:TX:a:t=61&colon;	!	!LO:TX:a:t=61	!	!LO:TX:a:t=61	!LO:TX:a:t=61	!	!	!LO:TX:a:t=61&colon;	!
4r	.	4r	.	4r	.	4r	.	4r	4r	.	.	4r	.
!	!	!LO:LB:g=original	!	!LO:LB:g=original	!	!	!	!	!	!	!	!LO:LB:g=original	!
=62:|!|:	=62:|!|:	=62:|!|:	=62:|!|:	=62:|!|:	=62:|!|:	=62:|!|:	=62:|!|:	=62:|!|:	=62:|!|:	=62:|!|:	=62:|!|:	=62:|!|:	=62:|!|:
*>B`	*	*>B	*	*>B	*	*>B	*	*>B	*>B	*>B	*	*>B	*
!	!	!	!	!	!	!	!	!LO:TX:a:t=10&colon;	!LO:TX:a:t=10&colon;	!LO:TX:a:t=10&colon;	!	!LO:TX:a:t=10&colon;	!
8d\L	.	8F#/L	.	8A/L	.	4d/	.	0.r	0.r	0.r	.	0.r	.
8d\	.	8F#/	.	8A/	.	.	.	.	.	.	.	.	.
8d\	.	8F#/	.	8A/	.	4dd\	.	.	.	.	.	.	.
8d\	.	8F#/	.	8A/	.	.	.	.	.	.	.	.	.
8d\	.	8F#/	.	8A/	.	8r	.	.	.	.	.	.	.
8d\J	.	8F#/J	.	8A/J	.	8f#/	.	.	.	.	.	.	.
!LO:LB:g=original	!	!	!	!	!	!	!	!	!	!	!	!	!
=63	=63	=63	=63	=63	=63	=63	=63	=63-	=63-	=63-	=63	=63-	=63
8G\L	.	8G/L	.	8B/L	.	8f#/L	.	.	.	.	.	.	.
8G\	.	8G/	.	8B/	.	8e/J	.	.	.	.	.	.	.
8G\	.	8G/	.	8B/	.	4g/	.	.	.	.	.	.	.
8G\	.	8G/	.	8B/	.	.	.	.	.	.	.	.	.
8G\	.	8G/	.	8B/	.	8r	.	.	.	.	.	.	.
8G\J	.	8G/J	.	8B/J	.	8ee\	.	.	.	.	.	.	.
!	!	!	!	!	!	!LO:LB:g=original	!	!	!	!	!	!	!
=64	=64	=64	=64	=64	=64	=64	=64	=64-	=64-	=64-	=64	=64-	=64
*	*	*tremolo	*	*	*	*	*	*	*	*	*	*	*
.	.	.	.	.	.	8qqff#/	.	.	.	.	.	.	.
8C#X/L	.	8c#X\L	.	8g/L	.	8ee\L	.	.	.	.	.	.	.
8C#/	.	8c#X\	.	8e/	.	16dd\L	.	.	.	.	.	.	.
.	.	.	.	.	.	16cc#X\JJ	.	.	.	.	.	.	.
8C#/	.	8c#X\	.	8e/	.	4a/	.	.	.	.	.	.	.
8C#/	.	8c#X\	.	8e/	.	.	.	.	.	.	.	.	.
8C#/	.	8c#X\	.	8e/	.	8r	.	.	.	.	.	.	.
8C#/J	.	8c#X\J	.	8e/J	.	8g/	.	.	.	.	.	.	.
*	*	*Xtremolo	*	*	*	*	*	*	*	*	*	*	*
=65	=65	=65	=65	=65	=65	=65	=65	=65-	=65-	=65-	=65	=65-	=65
8D\L	.	8A/L	.	8e/L	.	8g/L	.	.	.	.	.	.	.
8D\	.	8A/	.	8d/	.	8f#/J	.	.	.	.	.	.	.
8D\	.	8A/	.	8f#/	.	4a/	.	.	.	.	.	.	.
8D\	.	8A/	.	8f#/	.	.	.	.	.	.	.	.	.
8D\	.	8A/	.	8f#/	.	8r	.	.	.	.	.	.	.
8D\J	.	8A/J	.	8f#/J	.	8aa\	.	.	.	.	.	.	.
=66	=66	=66	=66	=66	=66	=66	=66	=66-	=66-	=66-	=66	=66-	=66
8F#\L	.	8F#/L	.	8a/L	.	8aa\L	.	0.r	0.r	0.r	.	0.r	.
8F#\	.	8F#/	.	8a/	.	16gg\L	.	.	.	.	.	.	.
.	.	.	.	.	.	16ff#\JJ	.	.	.	.	.	.	.
.	.	.	.	.	.	8qqee/	.	.	.	.	.	.	.
8F#\	.	8F#/	.	8a/	.	4dd\	.	.	.	.	.	.	.
8F#\	.	8F#/	.	8a/	.	.	.	.	.	.	.	.	.
8F#\	.	8F#/	.	8a/	.	4ccn\	.	.	.	.	.	.	.
8F#\J	.	8F#/J	.	8a/J	.	.	.	.	.	.	.	.	.
=67	=67	=67	=67	=67	=67	=67	=67	=67-	=67-	=67-	=67	=67-	=67
8G\L	.	8G/L	.	8a/L	.	8cc\L	.	.	.	.	.	.	.
8G\	.	8G/	.	8g/	.	8b\J	.	.	.	.	.	.	.
8G\	.	8G/	.	8g/	.	4bb\	.	.	.	.	.	.	.
8G\	.	8G/	.	8g/	.	.	.	.	.	.	.	.	.
8G\	.	8G/	.	8g/	.	8r	.	.	.	.	.	.	.
8G\J	.	8G/J	.	8g/J	.	8bb\	.	.	.	.	.	.	.
=68	=68	=68	=68	=68	=68	=68	=68	=68-	=68-	=68-	=68	=68-	=68
!!mixed beam:problem
!LO:TX:t=P:problem=mixed beam	!	!LO:TX:a:t=1	!	!	!	!	!	!	!	!	!	!	!
8F#\L	.	2.r	.	8dd\L	.	8.aa\L	.	.	.	.	.	.	.
8F#\	.	.	.	8dd\J	.	.	.	.	.	.	.	.	.
.	.	.	.	.	.	16bb\Jk	.	.	.	.	.	.	.
8A\	.	.	.	16f#/LL	.	4dd\	.	.	.	.	.	.	.
.	.	.	.	16a/	.	.	.	.	.	.	.	.	.
8A\	.	.	.	16g/	.	.	.	.	.	.	.	.	.
.	.	.	.	16f#/JJ	.	.	.	.	.	.	.	.	.
8AA/	.	.	.	16e/LL	.	4cc#X\	.	.	.	.	.	.	.
.	.	.	.	16g/	.	.	.	.	.	.	.	.	.
8AA/J	.	.	.	16f#/	.	.	.	.	.	.	.	.	.
.	.	.	.	16e/JJ	.	.	.	.	.	.	.	.	.
!LO:LB:g=original	!	!LO:LB:g=original	!	!LO:LB:g=original	!	!	!	!	!	!	!	!	!
=69	=69	=69	=69	=69	=69	=69	=69	=69-	=69-	=69-	=69	=69-	=69
.	.	.	.	.	.	8qqb/	.	.	.	.	.	.	.
8FF#/L	.	8F#/L	.	8d/L	.	8a/L	.	.	.	.	.	.	.
8FF#/	.	8F#/	.	8d/	.	16g/L	.	.	.	.	.	.	.
.	.	.	.	.	.	16f#/JJ	.	.	.	.	.	.	.
.	.	.	.	.	.	8qqe/	.	.	.	.	.	.	.
8FF#/	.	8F#/	.	8d/	.	4d/	.	.	.	.	.	.	.
8FF#/	.	8F#/	.	8d/	.	.	.	.	.	.	.	.	.
8FF#/	.	8F#/	.	8d/	.	4c#X/	.	.	.	.	.	.	.
8FF#/J	.	8F#/J	.	8d/J	.	.	.	.	.	.	.	.	.
=70	=70	=70	=70	=70	=70	=70	=70	=70-	=70-	=70-	=70	=70-	=70
!	!	!	!	!	!	!LO:SIC:v:s=8c#	!	!	!	!	!	!	!
8GG/L	.	8G/L	.	8d/L	.	8c/L	.	1.r	1.r	1.r	.	1.r	.
8GG/	.	8G/	.	8d/	.	8B/J	.	.	.	.	.	.	.
8GG/	.	8G/	.	8d/	.	4b\	.	.	.	.	.	.	.
8GG/	.	8G/	.	8d/	.	.	.	.	.	.	.	.	.
8GG/	.	8G/	.	8d/	.	8r	.	.	.	.	.	.	.
8GG/J	.	8G/J	.	8d/J	.	8b\	.	.	.	.	.	.	.
!	!	!	!	!	!	!LO:LB:g=original	!	!	!	!	!	!	!
=71	=71	=71	=71	=71	=71	=71	=71	=71-	=71-	=71-	=71	=71-	=71
!!mixed beam:problem
!LO:TX:t=P:problem=mixed beam	!	!LO:TX:a:t=1	!	!	!	!	!	!	!	!	!	!	!
8F#\L	.	2.r	.	8d/L	.	8.a/L	.	.	.	.	.	.	.
8G\	.	.	.	8d/	.	.	.	.	.	.	.	.	.
.	.	.	.	.	.	16b/Jk	.	.	.	.	.	.	.
8A\	.	.	.	8f#/	.	4d/	.	.	.	.	.	.	.
8A\	.	.	.	8f#/	.	.	.	.	.	.	.	.	.
8AA/	.	.	.	8e/	.	4c#X/	.	.	.	.	.	.	.
8AA/J	.	.	.	8e/J	.	.	.	.	.	.	.	.	.
=72	=72	=72	=72	=72	=72	=72	=72	=72	=72	=72	=72	=72	=72
!!mixed beam:problem
!	!	!	!	!LO:TX:t=P:problem=mixed beam	!LO:DY:rj:t=for	!LO:TX:t=P:problem=mixed beam	!LO:DY:rj:t=for	!	!	!	!	!	!
8D\L	.	8A/L	.	16d/LL	f	16d/LL	f	4d/	4a\	2.dd\	.	2.ff#\	.
.	.	.	.	16dd\	.	16ff#\	.	.	.	.	.	.	.
8F#\	.	8F#/	.	16dd\	.	16ff#\	.	.	.	.	.	.	.
.	.	.	.	16dd\JJ	.	16ff#\JJ	.	.	.	.	.	.	.
8G\	.	8G/	.	16dd\LL	.	16ff#\LL	.	4r	4r	.	.	.	.
.	.	.	.	16dd\	.	16ff#\	.	.	.	.	.	.	.
8A\	.	8A/	.	16dd\	.	16ff#\	.	.	.	.	.	.	.
.	.	.	.	16dd\JJ	.	16ff#\JJ	.	.	.	.	.	.	.
8B\	.	8B/	.	16dd\LL	.	16ff#\LL	.	4r	4r	.	.	.	.
.	.	.	.	16dd\	.	16ff#\	.	.	.	.	.	.	.
8c#X\J	.	8c#X/J	.	16dd\	.	16ff#\	.	.	.	.	.	.	.
.	.	.	.	16dd\JJ	.	16ff#\JJ	.	.	.	.	.	.	.
=73	=73	=73	=73	=73	=73	=73	=73	=73	=73	=73	=73	=73	=73
4d\	.	4d\	.	4dd\	.	16ff#\LL	.	4d/	4a\	4dd\	.	4ff#\	.
.	.	.	.	.	.	16ee\	.	.	.	.	.	.	.
.	.	.	.	.	.	16gg\	.	.	.	.	.	.	.
.	.	.	.	.	.	16ff#\JJ	.	.	.	.	.	.	.
4r	.	4r	.	4r	.	16ee\LL	.	4r	4r	4r	.	4r	.
.	.	.	.	.	.	16dd\	.	.	.	.	.	.	.
.	.	.	.	.	.	16cc#X\	.	.	.	.	.	.	.
.	.	.	.	.	.	16b\JJ	.	.	.	.	.	.	.
8r	.	8r	.	4r	.	16a/LL	.	4r	4r	4r	.	4r	.
.	.	.	.	.	.	16g/	.	.	.	.	.	.	.
8C#X/	.	8A/	.	.	.	16f#/	.	.	.	.	.	.	.
.	.	.	.	.	.	16e/JJ	.	.	.	.	.	.	.
=74	=74	=74	=74	=74	=74	=74	=74	=74	=74	=74	=74	=74	=74
!!mixed beam:problem
!	!	!	!	!LO:TX:t=P:problem=mixed beam	!	!LO:TX:t=P:problem=mixed beam	!	!	!	!	!	!	!
8D\L	.	8A/L	.	16d/LL	.	16d/LL	.	4d/	4a\	2.ff#\	.	2.aa\	.
.	.	.	.	16ff#\	.	16aa\	.	.	.	.	.	.	.
8F#\	.	8A/	.	16ff#\	.	16aa\	.	.	.	.	.	.	.
.	.	.	.	16ff#\JJ	.	16aa\JJ	.	.	.	.	.	.	.
8G\	.	8B/	.	16ff#\LL	.	16aa\LL	.	4r	4r	.	.	.	.
.	.	.	.	16ff#\	.	16aa\	.	.	.	.	.	.	.
8A\	.	8c#X/	.	16ff#\	.	16aa\	.	.	.	.	.	.	.
.	.	.	.	16ff#\JJ	.	16aa\JJ	.	.	.	.	.	.	.
8B\	.	8d/	.	16ff#\LL	.	16aa\LL	.	4r	4r	.	.	.	.
.	.	.	.	16ff#\	.	16aa\	.	.	.	.	.	.	.
8c#X\J	.	8e/J	.	16ff#\	.	16aa\	.	.	.	.	.	.	.
.	.	.	.	16ff#\JJ	.	16aa\JJ	.	.	.	.	.	.	.
!LO:LB:g=original	!	!	!	!LO:PB:g=original	!	!LO:PB:g=original	!	!	!LO:LB:g=original	!	!	!	!
=75	=75	=75	=75	=75	=75	=75	=75	=75	=75	=75	=75	=75	=75
4d\	.	4f#\	.	16ff#\LL	.	16aa\LL	.	4d/	4a\	4ff#\	.	4aa\	.
.	.	.	.	16ee\	.	16gg\	.	.	.	.	.	.	.
.	.	.	.	16gg\	.	16bb\	.	.	.	.	.	.	.
.	.	.	.	16ff#\JJ	.	16aa\JJ	.	.	.	.	.	.	.
4r	.	4r	.	16ee\LL	.	16gg\LL	.	4r	4r	2ee\	.	2gg\	.
.	.	.	.	16dd\	.	16ff#\	.	.	.	.	.	.	.
.	.	.	.	16cc#X\	.	16ee\	.	.	.	.	.	.	.
.	.	.	.	16b\JJ	.	16dd\JJ	.	.	.	.	.	.	.
8r	.	8r	.	16a/LL	.	16cc#X\LL	.	4r	4r	.	.	.	.
.	.	.	.	16g/	.	16b\	.	.	.	.	.	.	.
8C#X/	.	8A/	.	16f#/	.	16a\	.	.	.	.	.	.	.
.	.	.	.	16e/JJ	.	16g\JJ	.	.	.	.	.	.	.
!	!	!LO:LB:g=original	!	!	!	!	!	!LO:LB:g=original	!	!	!	!	!
=76	=76	=76	=76	=76	=76	=76	=76	=76	=76	=76	=76	=76	=76
!!mixed beam:problem
!	!	!	!	!LO:TX:t=P:problem=mixed beam	!	!LO:TX:t=P:problem=mixed beam	!	!LO:TX:a:t=1	!LO:TX:a:t=1	!	!	!	!
4D\	.	4d\	.	8d/L	.	16f#/LL	.	2.r	2.r	4dd\	.	4ff#\	.
.	.	.	.	.	.	16ddd\	.	.	.	.	.	.	.
.	.	.	.	8ff#\J	.	16ddd\	.	.	.	.	.	.	.
.	.	.	.	.	.	16ddd\JJ	.	.	.	.	.	.	.
4F#\	.	4f#\	.	8r	.	16ddd\LL	.	.	.	4r	.	2ddd\	.
.	.	.	.	.	.	16ddd\	.	.	.	.	.	.	.
.	.	.	.	8aa\	.	16ddd\	.	.	.	.	.	.	.
.	.	.	.	.	.	16ddd\JJ	.	.	.	.	.	.	.
4D\	.	4d\	.	8r	.	16ddd\LL	.	.	.	4ff#\	.	.	.
.	.	.	.	.	.	16ddd\	.	.	.	.	.	.	.
.	.	.	.	8ff#\	.	16ddd\	.	.	.	.	.	.	.
.	.	.	.	.	.	16ddd\JJ	.	.	.	.	.	.	.
=77	=77	=77	=77	=77	=77	=77	=77	=77	=77	=77	=77	=77	=77
4G\	.	4g\	.	8b\L	.	16ddd\LL	.	4r	4r	2.ee\	.	2.ddd\	.
.	.	.	.	.	.	16ee\	.	.	.	.	.	.	.
.	.	.	.	8b\J	.	16ee\	.	.	.	.	.	.	.
.	.	.	.	.	.	16ee\JJ	.	.	.	.	.	.	.
4B\	.	4b\	.	16g/LL	.	16ee\LL	.	4g\	4b\	.	.	.	.
.	.	.	.	16f#/	.	16ee\	.	.	.	.	.	.	.
.	.	.	.	16g/	.	16ee\	.	.	.	.	.	.	.
.	.	.	.	16a/JJ	.	16ee\JJ	.	.	.	.	.	.	.
4G\	.	4g\	.	8b\L	.	16ee\LL	.	4g\	4b\	.	.	.	.
.	.	.	.	.	.	16ee\	.	.	.	.	.	.	.
.	.	.	.	8b\J	.	16ee\	.	.	.	.	.	.	.
.	.	.	.	.	.	16ee\JJ	.	.	.	.	.	.	.
=78	=78	=78	=78	=78	=78	=78	=78	=78	=78	=78	=78	=78	=78
!LO:TX:a:t=5	!	!	!LO:DY:rj:t=p&colon;	!	!	!	!LO:DY:rj:t=p&colon;	!LO:TX:a:t=7&colon;	!LO:TX:a:t=7&colon;	!LO:TX:a:t=5.	!	!LO:TX:a:t=5.	!
0.r	.	8g\L	p	8b\L	.	8dd#X\L	p	0.r	0.r	0.r	.	0.r	.
.	.	8g\	.	8b\	.	8ee\J	.	.	.	.	.	.	.
.	.	8g\	.	8b\	.	8r	.	.	.	.	.	.	.
.	.	8g\	.	8b\	.	8bb\	.	.	.	.	.	.	.
.	.	.	.	.	.	8qqaa/	.	.	.	.	.	.	.
.	.	8g\	.	8b\	.	8gg\L	.	.	.	.	.	.	.
.	.	8g\J	.	8b\J	.	16ff#\L	.	.	.	.	.	.	.
.	.	.	.	.	.	16ee\JJ	.	.	.	.	.	.	.
!	!	!	!	!	!	!LO:LB:g=original	!	!	!	!	!	!	!
=79-	=79	=79	=79	=79	=79	=79	=79	=79-	=79-	=79-	=79	=79-	=79
.	.	8g\L	.	8b\L	.	8dd#X\L	.	.	.	.	.	.	.
.	.	8g\	.	8b\	.	8ee\J	.	.	.	.	.	.	.
.	.	8g\	.	8b\	.	4r	.	.	.	.	.	.	.
.	.	8g\	.	8b\	.	.	.	.	.	.	.	.	.
.	.	8g\	.	8b\	.	8r	.	.	.	.	.	.	.
.	.	8g\J	.	8b\J	.	8dd#X\	.	.	.	.	.	.	.
=80-	=80	=80	=80	=80	=80	=80	=80	=80-	=80-	=80-	=80	=80-	=80
!!mixed beam:problem
!	!	!LO:TX:t=P:problem=mixed beam	!	!	!	!	!	!	!	!	!	!	!
.	.	8g\L	.	8b\L	.	8.ee\L	.	.	.	.	.	.	.
.	.	8g\	.	8b\	.	.	.	.	.	.	.	.	.
.	.	.	.	.	.	16ff#\K	.	.	.	.	.	.	.
.	.	8g\	.	8b\	.	8.gg\	.	.	.	.	.	.	.
.	.	8g\	.	8b\	.	.	.	.	.	.	.	.	.
.	.	.	.	.	.	16aa\Jk	.	.	.	.	.	.	.
.	.	8G/	.	8b\	.	8.bb\L	.	.	.	.	.	.	.
.	.	8G/J	.	8b\J	.	.	.	.	.	.	.	.	.
.	.	.	.	.	.	16dd\Jk	.	.	.	.	.	.	.
!	!	!	!	!LO:LB:g=original	!	!	!	!	!	!	!	!	!
=81-	=81	=81	=81	=81	=81	=81	=81	=81-	=81-	=81-	=81	=81-	=81
.	.	8A/L	.	8e/L	.	8dd\L	.	.	.	.	.	.	.
.	.	8A/	.	8e/	.	8cc#X\J	.	.	.	.	.	.	.
.	.	8A/	.	8e/	.	4r	.	.	.	.	.	.	.
.	.	8A/	.	8e/	.	.	.	.	.	.	.	.	.
.	.	8A/	.	8e/	.	8.r	.	.	.	.	.	.	.
.	.	8A/J	.	8e/J	.	.	.	.	.	.	.	.	.
.	.	.	.	.	.	16dd\	.	.	.	.	.	.	.
=82-	=82	=82	=82	=82	=82	=82	=82	=82-	=82-	=82-	=82	=82-	=82
2.r	.	8e\L	.	8g/L	.	8.cc#X\L	.	1.r	1.r	2.r	.	2.r	.
.	.	8e\	.	8g/	.	.	.	.	.	.	.	.	.
.	.	.	.	.	.	16dd\K	.	.	.	.	.	.	.
.	.	8e\	.	8g/	.	8.ee\	.	.	.	.	.	.	.
.	.	8e\	.	8g/	.	.	.	.	.	.	.	.	.
.	.	.	.	.	.	16ff#\K	.	.	.	.	.	.	.
.	.	8e\	.	8g/	.	8.gg\	.	.	.	.	.	.	.
.	.	8e\J	.	8g/J	.	.	.	.	.	.	.	.	.
.	.	.	.	.	.	16b\Jk	.	.	.	.	.	.	.
!	!	!LO:PB:g=original	!	!	!	!	!	!	!	!	!	!	!
=83	=83	=83	=83	=83	=83	=83	=83	=83-	=83-	=83	=83	=83	=83
!!mixed beam:problem
!	!	!	!LO:DY:rj:t=for	!LO:TX:t=P:problem=mixed beam	!LO:DY:t=for	!	!	!	!	!	!	!	!
4r	.	8f#\L	f	8d/L	f	8b/L	.	.	.	4r	.	4r	.
.	.	8f#\	.	8c#X/	.	8a#X/J	.	.	.	.	.	.	.
4A#X\	.	8f#\	.	8cc#X\	.	16cc#X\LL	.	.	.	4cc#X\	.	2ff#\	.
.	.	.	.	.	.	16ff#\	.	.	.	.	.	.	.
.	.	8f#\	.	8ff#\	.	16ff#\	.	.	.	.	.	.	.
.	.	.	.	.	.	16ff#\JJ	.	.	.	.	.	.	.
4B\	.	8f#\	.	8dd\	.	16dd\LL	.	.	.	4dd\	.	.	.
.	.	.	.	.	.	16ff#\	.	.	.	.	.	.	.
.	.	8f#\J	.	8ff#\J	.	16ff#\	.	.	.	.	.	.	.
.	.	.	.	.	.	16ff#\JJ	.	.	.	.	.	.	.
!	!	!	!	!	!	!	!	!	!	!LO:LB:g=original	!	!	!
=84	=84	=84	=84	=84	=84	=84	=84	=84-	=84-	=84	=84	=84	=84
4c#X\	.	8f#\L	.	8ee\L	.	16ee\LL	.	2.r	2.r	4ee\	.	2.ff#\	.
.	.	.	.	.	.	16ff#\	.	.	.	.	.	.	.
.	.	8f#\	.	8ff#\	.	16ff#\	.	.	.	.	.	.	.
.	.	.	.	.	.	16ff#\JJ	.	.	.	.	.	.	.
4A#X\	.	8f#\	.	8cc#X\	.	16cc#X\LL	.	.	.	4cc#X\	.	.	.
.	.	.	.	.	.	16ff#\	.	.	.	.	.	.	.
.	.	8f#\	.	8ff#\	.	16ff#\	.	.	.	.	.	.	.
.	.	.	.	.	.	16ff#\JJ	.	.	.	.	.	.	.
4B\	.	8f#\	.	8dd\	.	16dd\LL	.	.	.	4dd\	.	.	.
.	.	.	.	.	.	16ff#\	.	.	.	.	.	.	.
.	.	8f#\J	.	8ff#\J	.	16ff#\	.	.	.	.	.	.	.
.	.	.	.	.	.	16ff#\JJ	.	.	.	.	.	.	.
!	!	!	!	!	!	!LO:LB:g=original	!	!	!	!	!	!LO:LB:g=original	!
=85	=85	=85	=85	=85	=85	=85	=85	=85	=85	=85	=85	=85	=85
!!mixed beam:problem
!	!	!	!	!	!	!LO:TX:t=P:problem=mixed beam	!	!	!	!	!	!	!
4r	.	8B/L	.	8B/L	.	16B/LL	.	4B/	4b\	4r	.	4r	.
.	.	.	.	.	.	16b\	.	.	.	.	.	.	.
.	.	8B/	.	8b/	.	16b\	.	.	.	.	.	.	.
.	.	.	.	.	.	16b\JJ	.	.	.	.	.	.	.
4D#X\	.	8B/	.	8f#/	.	16f#\LL	.	4r	4r	4ff#\	.	2bb\	.
.	.	.	.	.	.	16b\	.	.	.	.	.	.	.
.	.	8B/	.	8b/	.	16b\	.	.	.	.	.	.	.
.	.	.	.	.	.	16b\JJ	.	.	.	.	.	.	.
4E\	.	8B/	.	8g/	.	16g\LL	.	4r	4r	4gg\	.	.	.
.	.	.	.	.	.	16b\	.	.	.	.	.	.	.
.	.	8B/J	.	8b/J	.	16b\	.	.	.	.	.	.	.
.	.	.	.	.	.	16b\JJ	.	.	.	.	.	.	.
=86	=86	=86	=86	=86	=86	=86	=86	=86	=86	=86	=86	=86	=86
!	!	!	!	!	!	!	!	!LO:TX:a:t=3	!LO:TX:a:t=3.	!	!	!	!
4F#\	.	8B/L	.	8a/L	.	16a\LL	.	1.r	1.r	4aa\	.	2.bb\	.
.	.	.	.	.	.	16b\	.	.	.	.	.	.	.
.	.	8B/	.	8b/	.	16b\	.	.	.	.	.	.	.
.	.	.	.	.	.	16b\JJ	.	.	.	.	.	.	.
4D#X\	.	8B/	.	8f#/	.	16f#\LL	.	.	.	4ff#\	.	.	.
.	.	.	.	.	.	16b\	.	.	.	.	.	.	.
.	.	8B/	.	8b/	.	16b\	.	.	.	.	.	.	.
.	.	.	.	.	.	16b\JJ	.	.	.	.	.	.	.
4E\	.	8B/	.	8g/	.	16g\LL	.	.	.	4gg\	.	.	.
.	.	.	.	.	.	16b\	.	.	.	.	.	.	.
.	.	8B/J	.	8b/J	.	16b\	.	.	.	.	.	.	.
.	.	.	.	.	.	16b\JJ	.	.	.	.	.	.	.
=87	=87	=87	=87	=87	=87	=87	=87	=87-	=87-	=87	=87	=87	=87
4F#\	.	8B/L	.	8a/L	.	16a\LL	.	.	.	4aa\	.	2.bb\	.
.	.	.	.	.	.	16b\	.	.	.	.	.	.	.
.	.	8B/	.	8b/	.	16b\	.	.	.	.	.	.	.
.	.	.	.	.	.	16b\JJ	.	.	.	.	.	.	.
4D#X\	.	8B/	.	8f#/	.	16f#\LL	.	.	.	4ff#\	.	.	.
.	.	.	.	.	.	16b\	.	.	.	.	.	.	.
.	.	8B/	.	8b/	.	16b\	.	.	.	.	.	.	.
.	.	.	.	.	.	16b\JJ	.	.	.	.	.	.	.
4E\	.	8B/	.	8g/	.	16g\LL	.	.	.	4gg\	.	.	.
.	.	.	.	.	.	16b\	.	.	.	.	.	.	.
.	.	8B/J	.	8b/J	.	16b\	.	.	.	.	.	.	.
.	.	.	.	.	.	16b\JJ	.	.	.	.	.	.	.
!LO:LB:g=original	!	!	!	!	!	!	!	!	!	!	!	!	!
=88	=88	=88	=88	=88	=88	=88	=88	=88-	=88-	=88	=88	=88	=88
4AA/	.	4A/	.	8ccn\	.	16ccn\LL	.	2.r	2.r	2.a/	.	2.ccn\	.
.	.	.	.	.	.	16cc\	.	.	.	.	.	.	.
.	.	.	.	4cc\	.	16cc\	.	.	.	.	.	.	.
.	.	.	.	.	.	16cc\JJ	.	.	.	.	.	.	.
8r	.	8r	.	.	.	16a/LL	.	.	.	.	.	.	.
.	.	.	.	.	.	16a/	.	.	.	.	.	.	.
8A\L	.	8A/L	.	4cc\	.	16a/	.	.	.	.	.	.	.
.	.	.	.	.	.	16a/JJ	.	.	.	.	.	.	.
8A\	.	8A/	.	.	.	16f#/LL	.	.	.	.	.	.	.
.	.	.	.	.	.	16f#/	.	.	.	.	.	.	.
8A\J	.	8A/J	.	8cc\	.	16f#/	.	.	.	.	.	.	.
.	.	.	.	.	.	16f#/JJ	.	.	.	.	.	.	.
!	!	!	!	!	!	!LO:LB:g=original	!	!	!	!	!	!	!
=89	=89	=89	=89	=89	=89	=89	=89	=89	=89	=89	=89	=89	=89
4B\	.	4B/	.	4b\	.	16d#X/LL	.	4B/	4b\	4f#/	.	2b\	.
.	.	.	.	.	.	16d#/	.	.	.	.	.	.	.
.	.	.	.	.	.	16d#/	.	.	.	.	.	.	.
.	.	.	.	.	.	16d#/JJ	.	.	.	.	.	.	.
8r	.	8r	.	8r	.	16b\LL	.	4r	4r	4r	.	.	.
.	.	.	.	.	.	16b\	.	.	.	.	.	.	.
8BB/L	.	8B/L	.	8d#X/L	.	16b\	.	.	.	.	.	.	.
.	.	.	.	.	.	16b\JJ	.	.	.	.	.	.	.
8Cn/	.	8B/	.	8e/	.	16a/LL	.	4B/	4b\	8e/L	.	4a\	.
.	.	.	.	.	.	16a/	.	.	.	.	.	.	.
8D#X/J	.	8B/J	.	8f#/J	.	16a/	.	.	.	8f#/J	.	.	.
.	.	.	.	.	.	16a/JJ	.	.	.	.	.	.	.
!	!	!LO:LB:g=original	!	!LO:LB:g=original	!	!	!	!	!	!	!	!	!
=90	=90	=90	=90	=90	=90	=90	=90	=90	=90	=90	=90	=90	=90
4E\	.	4B/	.	4g/	.	16g/LL	.	4g\	4b\	4e/	.	4g/	.
.	.	.	.	.	.	16g/	.	.	.	.	.	.	.
.	.	.	.	.	.	16g/	.	.	.	.	.	.	.
.	.	.	.	.	.	16g/JJ	.	.	.	.	.	.	.
8r	.	8r	.	8r	.	16ee\LL	.	4r	4r	2g/	.	2ee\	.
.	.	.	.	.	.	16ee\	.	.	.	.	.	.	.
8G\L	.	8g\L	.	8B/L	.	16ee\	.	.	.	.	.	.	.
.	.	.	.	.	.	16ee\JJ	.	.	.	.	.	.	.
8F#\	.	8f#\	.	8c#X/	.	16a#X/LL	.	4r	4r	.	.	.	.
.	.	.	.	.	.	16a#/	.	.	.	.	.	.	.
8E\J	.	8e\J	.	8f#/J	.	16a#/	.	.	.	.	.	.	.
.	.	.	.	.	.	16a#/JJ	.	.	.	.	.	.	.
=91	=91	=91	=91	=91	=91	=91	=91	=91	=91	=91	=91	=91	=91
8D#X\L	.	4d#X\	.	4f#/	.	4b\	.	4B/	4b\	4r	.	4r	.
8BB\	.	.	.	.	.	.	.	.	.	.	.	.	.
8D#\	.	4B\	.	4f#/	.	4b\	.	4B/	4b\	4f#/	.	4b\	.
8F#\	.	.	.	.	.	.	.	.	.	.	.	.	.
8B\	.	4B\	.	4f#/	.	4b\	.	4B/	4b\	4f#/	.	4b\	.
8d#X\J	.	.	.	.	.	.	.	.	.	.	.	.	.
=92	=92	=92	=92	=92	=92	=92	=92	=92	=92	=92	=92	=92	=92
!LO:SIC:v:s=4B	!	!	!	!	!	!	!	!	!	!	!	!	!
4c\	.	2B/	.	4B/ 4f#/	.	4B/ 4e/ 4b/	.	8.B/L	8.b\L	2f#/	.	2b\	.
.	.	.	.	.	.	.	.	16B/Jk	16b\Jk	.	.	.	.
4BB/	.	.	.	4r	.	4r	.	2B/	2b\	.	.	.	.
4AA/	.	4r	.	4r	.	4r	.	.	.	4r	.	4r	.
!	!	!	!	!	!	!	!	!	!LO:LB:g=original	!	!	!	!
=93	=93	=93	=93	=93	=93	=93	=93	=93	=93	=93	=93	=93	=93
!	!LO:DY:rj	!	!LO:DY:t=p&colon;	!	!LO:DY:rj:t=p&colon;	!	!LO:DY:t=p&colon;	!LO:TX:a:t=12	!LO:TX:a:t=12	!LO:TX:a:t=12	!	!LO:TX:a:t=12.	!
8GG/L	p	8B/L	p	8d/L	p	4g/	p	0.r	0.r	0.r	.	0.r	.
8GG/	.	8B/	.	8d/	.	.	.	.	.	.	.	.	.
8GG/	.	8B/	.	8d/	.	4gg\	.	.	.	.	.	.	.
8GG/	.	8B/	.	8d/	.	.	.	.	.	.	.	.	.
8GG/	.	8B/	.	8d/	.	8r	.	.	.	.	.	.	.
!	!	!	!	!	!	!LO:SIC:v:s=8b	!	!	!	!	!	!	!
!	!	!	!	!	!	!LO:TX:a:t=h	!	!	!	!	!	!	!
8GG/J	.	8B/J	.	8d/J	.	8dd\	.	.	.	.	.	.	.
=94	=94	=94	=94	=94	=94	=94	=94	=94-	=94-	=94-	=94	=94-	=94
*	*	*tremolo	*	*	*	*	*	*	*	*	*	*	*
8C\L	.	8c\L	.	8e/L	.	(>8b\L	.	.	.	.	.	.	.
8C\	.	8c\	.	8e/	.	8a\J)	.	.	.	.	.	.	.
8C\	.	8c\	.	8e/	.	4cc\	.	.	.	.	.	.	.
8C\	.	8c\	.	8e/	.	.	.	.	.	.	.	.	.
8C\	.	8c\	.	8e/	.	8r	.	.	.	.	.	.	.
8C\J	.	8c\J	.	8e/J	.	8g/	.	.	.	.	.	.	.
*	*	*Xtremolo	*	*	*	*	*	*	*	*	*	*	*
!LO:PB:g=original	!	!	!	!	!	!	!	!	!	!	!	!	!
=95	=95	=95	=95	=95	=95	=95	=95	=95-	=95-	=95-	=95	=95-	=95
8D\L	.	8d\L	.	8f#/L	.	4f#/	.	.	.	.	.	.	.
8D\	.	8d\	.	8f#/	.	.	.	.	.	.	.	.	.
8D\	.	8d\	.	8f#/	.	4aa\	.	.	.	.	.	.	.
8D\	.	8d\	.	8f#/	.	.	.	.	.	.	.	.	.
8D\	.	8d\	.	8f#/	.	8r	.	.	.	.	.	.	.
8D\J	.	8d\J	.	8f#/J	.	8cc\	.	.	.	.	.	.	.
!	!	!	!	!	!	!LO:LB:g=original	!	!	!	!	!	!	!
=96	=96	=96	=96	=96	=96	=96	=96	=96-	=96-	=96-	=96	=96-	=96
*	*	*	*	*tremolo	*	*	*	*	*	*	*	*	*
!	!	!LO:TX:a:t=1	!	!	!	!	!	!	!	!	!	!	!
8G\L	.	2.r	.	8d/L	.	8cc\L	.	.	.	.	.	.	.
8G\	.	.	.	8d/	.	8b\J	.	.	.	.	.	.	.
8G\	.	.	.	8d/	.	4dd\	.	.	.	.	.	.	.
8G\	.	.	.	8d/	.	.	.	.	.	.	.	.	.
8G\	.	.	.	8d/	.	8r	.	.	.	.	.	.	.
8G\J	.	.	.	8d/J	.	8gg\	.	.	.	.	.	.	.
*	*	*	*	*Xtremolo	*	*	*	*	*	*	*	*	*
=97	=97	=97	=97	=97	=97	=97	=97	=97-	=97-	=97-	=97	=97-	=97
8BB/L	.	8B/L	.	8dd\L	.	(>8gg\L	.	0.r	0.r	0.r	.	0.r	.
8BB/	.	8B/	.	8dd\	.	8ffn\J)	.	.	.	.	.	.	.
8BB/	.	8B/	.	8dd\	.	4ff\	.	.	.	.	.	.	.
8BB/	.	8B/	.	8dd\	.	.	.	.	.	.	.	.	.
8BB/	.	8B/	.	8dd\	.	8r	.	.	.	.	.	.	.
8BB/J	.	8B/J	.	8dd\J	.	8ff\	.	.	.	.	.	.	.
=98	=98	=98	=98	=98	=98	=98	=98	=98-	=98-	=98-	=98	=98-	=98
!	!	!	!	!	!	!LO:SIC:v:s=8ffn	!	!	!	!	!	!	!
8C/L	.	8c\L	.	8dd\L	.	(>8ff#\L	.	.	.	.	.	.	.
8C/	.	8c\	.	8cc\	.	8ee\J)	.	.	.	.	.	.	.
8C/	.	8c\	.	8cc\	.	4ee\	.	.	.	.	.	.	.
8C/	.	8c\	.	8cc\	.	.	.	.	.	.	.	.	.
8C/	.	8c\	.	8cc\	.	8r	.	.	.	.	.	.	.
8C/J	.	8c\J	.	8cc\J	.	8ee\	.	.	.	.	.	.	.
!	!	!LO:LB:g=original	!	!	!	!	!	!	!	!	!	!	!
=99	=99	=99	=99	=99	=99	=99	=99	=99-	=99-	=99-	=99	=99-	=99
.	.	.	.	.	.	8qqee/	.	.	.	.	.	.	.
8D\L	.	8d\L	.	8b\L	.	4.dd\	.	.	.	.	.	.	.
8D\	.	8d\	.	8b\	.	.	.	.	.	.	.	.	.
8D\	.	8d\	.	8b\	.	.	.	.	.	.	.	.	.
8D\	.	8d\	.	8g\	.	8bb\L	.	.	.	.	.	.	.
8D\	.	8d\	.	8f#\	.	8aa\	.	.	.	.	.	.	.
8D\J	.	8d\J	.	8a\J	.	8cc\J	.	.	.	.	.	.	.
=100	=100	=100	=100	=100	=100	=100	=100	=100-	=100-	=100-	=100	=100-	=100
8E\L	.	8e\L	.	8a/L	.	(>8cc\L	.	.	.	.	.	.	.
8E\	.	8e\	.	8g/	.	8b\J)	.	.	.	.	.	.	.
8E\	.	8e\	.	8g/	.	4b\	.	.	.	.	.	.	.
8E\	.	8e\	.	8g/	.	.	.	.	.	.	.	.	.
8E\	.	8e\	.	8g/	.	8r	.	.	.	.	.	.	.
8E\J	.	8e\J	.	8g/J	.	8b\	.	.	.	.	.	.	.
!	!	!	!	!LO:LB:g=original	!	!	!	!	!	!	!	!	!
=101	=101	=101	=101	=101	=101	=101	=101	=101-	=101-	=101-	=101	=101-	=101
8C\L	.	8c\L	.	8e/L	.	4.a/	.	0.r	0.r	0.r	.	0.r	.
8C\	.	8c\	.	8e/	.	.	.	.	.	.	.	.	.
8C\	.	8c\	.	8e/	.	.	.	.	.	.	.	.	.
8C\	.	8c\	.	8c/	.	8ee\L	.	.	.	.	.	.	.
8D\	.	8d\	.	8B/	.	8dd\	.	.	.	.	.	.	.
8E\J	.	8e\J	.	8B/J	.	8g\J	.	.	.	.	.	.	.
!LO:LB:g=original	!	!	!	!	!	!	!	!	!	!	!	!	!
=102	=102	=102	=102	=102	=102	=102	=102	=102-	=102-	=102-	=102	=102-	=102
8F#\L	.	8d\L	.	8c/L	.	2f#/	.	.	.	.	.	.	.
8F#\	.	8d\	.	8c/	.	.	.	.	.	.	.	.	.
8c\	.	8c\	.	8A/	.	.	.	.	.	.	.	.	.
8c\	.	8c\	.	8d/	.	.	.	.	.	.	.	.	.
8B\	.	8B\	.	8d/	.	4g/	.	.	.	.	.	.	.
8B\J	.	8B\J	.	8d/J	.	.	.	.	.	.	.	.	.
=103	=103	=103	=103	=103	=103	=103	=103	=103-	=103-	=103-	=103	=103-	=103
*	*	*	*	*	*	*tuplet	*	*	*	*	*	*	*
!	!	!LO:TX:a:t=1	!	!	!	!LO:TUP:a:problem=klamra łukowa	!	!	!	!	!	!	!
8F#\L	.	2.r	.	8d/L	.	12a\L	.	.	.	.	.	.	.
.	.	.	.	.	.	12b\	.	.	.	.	.	.	.
8F#\	.	.	.	8d/	.	.	.	.	.	.	.	.	.
.	.	.	.	.	.	12cc\J	.	.	.	.	.	.	.
8G\	.	.	.	8d/	.	8a\ 8cc\L	.	.	.	.	.	.	.
8G\	.	.	.	8d/	.	8b\	.	.	.	.	.	.	.
8E\	.	.	.	8G/	.	8gg\	.	.	.	.	.	.	.
8E\J	.	.	.	8g/J	.	8b\J	.	.	.	.	.	.	.
!	!	!	!	!	!	!LO:LB:g=original	!	!	!	!	!	!	!
=104	=104	=104	=104	=104	=104	=104	=104	=104-	=104-	=104-	=104	=104-	=104
8D\L	.	8d\L	.	8g/L	.	4.b\	.	.	.	.	.	.	.
8D\	.	8d\	.	8g/	.	.	.	.	.	.	.	.	.
8D\	.	8d\	.	8g/	.	.	.	.	.	.	.	.	.
!	!	!	!	!	!	!LO:TUP:a:problem=klamra łukowa	!	!	!	!	!	!	!
8D\	.	8d\	.	8g/	.	24dd\LL	.	.	.	.	.	.	.
.	.	.	.	.	.	24cc\	.	.	.	.	.	.	.
.	.	.	.	.	.	24b\JJ	.	.	.	.	.	.	.
8d\	.	8d\	.	8f#/	.	4a/	.	.	.	.	.	.	.
8D\J	.	8d\J	.	8f#/J	.	.	.	.	.	.	.	.	.
!	!	!	!	!	!	!	!	!	!	!LO:LB:g=original	!	!LO:LB:g=original	!
=105	=105	=105	=105	=105	=105	=105	=105	=105	=105	=105	=105	=105	=105
!	!LO:DY:rj:t=for	!	!LO:DY:rj:t=for	!	!LO:DY:rj:t=for	!	!LO:DY:t=for&colon;	!	!	!	!	!	!
8G\L	f	16d\LL	f	16b\LL	f	4g/	f	8B/L	8g\L	2.b\	.	2.gg\	.
.	.	16d\	.	16b\	.	.	.	.	.	.	.	.	.
8G\	.	16d\	.	16b\	.	.	.	8B/	8g\	.	.	.	.
.	.	16d\JJ	.	16b\JJ	.	.	.	.	.	.	.	.	.
8G\	.	16d\LL	.	16b\LL	.	4gg\	.	8B/	8g\	.	.	.	.
.	.	16d\	.	16b\	.	.	.	.	.	.	.	.	.
8G\	.	16d\	.	16b\	.	.	.	8B/J	8g\J	.	.	.	.
.	.	16d\JJ	.	16b\JJ	.	.	.	.	.	.	.	.	.
8G\	.	16d\LL	.	16b\LL	.	8r	.	4B/	4g\	.	.	.	.
.	.	16d\	.	16b\	.	.	.	.	.	.	.	.	.
8G\J	.	16d\	.	16b\	.	8bb\	.	.	.	.	.	.	.
.	.	16d\JJ	.	16b\JJ	.	.	.	.	.	.	.	.	.
!	!	!LO:LB:g=original	!	!	!	!	!	!LO:LB:g=original	!	!	!	!	!
=106	=106	=106	=106	=106	=106	=106	=106	=106	=106	=106	=106	=106	=106
8F#\L	.	16d\LL	.	16cc\LL	.	8bb\L	.	8r	8r	2.cc\	.	8bb\L	.
.	.	16d\	.	16cc\	.	.	.	.	.	.	.	.	.
8F#\	.	16d\	.	16cc\	.	8aa\J	.	8d/	8a\	.	.	8aa\J	.
.	.	16d\JJ	.	16cc\JJ	.	.	.	.	.	.	.	.	.
8F#\	.	16d\LL	.	16cc\LL	.	16ccc\LL	.	2d/	2a\	.	.	2aa\	.
.	.	16d\	.	16cc\	.	16bb\	.	.	.	.	.	.	.
8F#\	.	16d\	.	16cc\	.	16aa\	.	.	.	.	.	.	.
.	.	16d\JJ	.	16cc\JJ	.	16gg\JJ	.	.	.	.	.	.	.
8F#\	.	16d\LL	.	16cc\LL	.	16ff#\LL	.	.	.	.	.	.	.
.	.	16d\	.	16cc\	.	16ee\	.	.	.	.	.	.	.
8F#\J	.	16d\	.	16cc\	.	16dd\	.	.	.	.	.	.	.
.	.	16d\JJ	.	16cc\JJ	.	16cc\JJ	.	.	.	.	.	.	.
=107	=107	=107	=107	=107	=107	=107	=107	=107	=107	=107	=107	=107	=107
8G\L	.	16d\LL	.	16b/LL	.	4b\	.	8r	8r	4b\	.	2.gg\	.
.	.	16d\	.	16g/	.	.	.	.	.	.	.	.	.
8G\	.	16d\	.	16g/	.	.	.	8B/L	8g\L	.	.	.	.
.	.	16d\JJ	.	16g/JJ	.	.	.	.	.	.	.	.	.
8B\	.	16d\LL	.	16g/LL	.	4ddd\	.	8G/	8g\	2dd\	.	.	.
.	.	16d\	.	16g/	.	.	.	.	.	.	.	.	.
8B\	.	16d\	.	16g/	.	.	.	8G/J	8g\J	.	.	.	.
.	.	16d\JJ	.	16g/JJ	.	.	.	.	.	.	.	.	.
8B\	.	16d\LL	.	16g/LL	.	8r	.	4G/	4g\	.	.	.	.
.	.	16d\	.	16g/	.	.	.	.	.	.	.	.	.
8B\J	.	16d\	.	16g/	.	8dd\	.	.	.	.	.	.	.
.	.	16d\JJ	.	16g/JJ	.	.	.	.	.	.	.	.	.
!	!	!	!	!LO:LB:g=original	!	!	!	!	!	!	!	!	!
=108	=108	=108	=108	=108	=108	=108	=108	=108	=108	=108	=108	=108	=108
8c\L	.	16c\LL	.	16g/LL	.	4ee\	.	4r	8r	2ee\	.	4gg\	.
.	.	16c\	.	16g/	.	.	.	.	.	.	.	.	.
16c\L	.	16c\	.	16g/	.	.	.	.	8g\L	.	.	.	.
16B\JJ	.	16c\JJ	.	16g/JJ	.	.	.	.	.	.	.	.	.
8A\L	.	16c\LL	.	16ee\LL	.	4ccc\	.	4r	8a\	.	.	4.ccc\	.
.	.	16c\	.	16ee\	.	.	.	.	.	.	.	.	.
16A\L	.	16c\	.	16ee\	.	.	.	.	8a\	.	.	.	.
16G\JJ	.	16c\JJ	.	16ee\JJ	.	.	.	.	.	.	.	.	.
8F#\L	.	8c/L	.	16dd\LL	.	8r	.	(<8d/L	8a\	4dd\	.	.	.
.	.	.	.	16dd\	.	.	.	.	.	.	.	.	.
8G\J	.	8B/J	.	16dd\	.	8bb\	.	8g/J)	8b\J	.	.	8bb\	.
.	.	.	.	16dd\JJ	.	.	.	.	.	.	.	.	.
!LO:LB:g=original	!	!	!	!	!	!	!	!	!	!	!	!	!
=109	=109	=109	=109	=109	=109	=109	=109	=109	=109	=109	=109	=109	=109
8C\L	.	8c\L	.	8ee\L	.	16bb\LL	.	4r	4r	4cc\	.	4aa\	.
.	.	.	.	.	.	16aa\	.	.	.	.	.	.	.
8C\	.	8c\	.	16r	.	16ccc\	.	.	.	.	.	.	.
.	.	.	.	16cc\Jk	.	16aa\JJ	.	.	.	.	.	.	.
8D\	.	8d\	.	16b\LL	.	(>4gg\	.	4g\	4a\	4b\	.	4gg\	.
.	.	.	.	16gg\	.	.	.	.	.	.	.	.	.
8D\	.	8d\	.	16b\	.	.	.	.	.	.	.	.	.
.	.	.	.	16gg\JJ	.	.	.	.	.	.	.	.	.
8D\	.	8d\	.	16a\LL	.	4ff#\)	.	4d/	4a\	4a\	.	4ff#\	.
.	.	.	.	16ff#\	.	.	.	.	.	.	.	.	.
8D\J	.	8d\J	.	16a\	.	.	.	.	.	.	.	.	.
.	.	.	.	16ff#\JJ	.	.	.	.	.	.	.	.	.
=110	=110	=110	=110	=110	=110	=110	=110	=110	=110	=110	=110	=110	=110
!!mixed beam:problem
!LO:TX:t=P:problem=mixed beam	!	!	!	!LO:TX:t=P:problem=mixed beam	!	!	!	!	!	!	!	!	!
8G\L	.	8d\L	.	16gg\LL	.	4b\	.	8r	8r	2b\	.	2.gg\	.
.	.	.	.	16g/	.	.	.	.	.	.	.	.	.
8G\	.	8d\J	.	16g/	.	.	.	8G/L	8g\L	.	.	.	.
.	.	.	.	16g/JJ	.	.	.	.	.	.	.	.	.
8BB/	.	16B/LL	.	16g/LL	.	4ddd\	.	8G/	8g\	.	.	.	.
.	.	16B/	.	16g/	.	.	.	.	.	.	.	.	.
8BB/	.	16B/	.	16g/	.	.	.	8G/J	8g\J	.	.	.	.
.	.	16B/JJ	.	16g/JJ	.	.	.	.	.	.	.	.	.
8BB/	.	16B/LL	.	16g/LL	.	8r	.	4G/	4g\	4dd\	.	.	.
.	.	16B/	.	16g/	.	.	.	.	.	.	.	.	.
8BB/J	.	16B/	.	16g/	.	8dd\	.	.	.	.	.	.	.
.	.	16B/JJ	.	16g/JJ	.	.	.	.	.	.	.	.	.
!	!	!LO:LB:g=original	!	!	!	!	!	!	!	!	!	!	!
=111	=111	=111	=111	=111	=111	=111	=111	=111	=111	=111	=111	=111	=111
8C/L	.	16c\LL	.	16g/LL	.	4ee\	.	8r	8r	2.ee\	.	2.gg\	.
.	.	16c\	.	16g/	.	.	.	.	.	.	.	.	.
8C/	.	16c\	.	16g/	.	.	.	8G/L	8g\L	.	.	.	.
.	.	16c\JJ	.	16g/JJ	.	.	.	.	.	.	.	.	.
8C/	.	16c\LL	.	16g/LL	.	4eee\	.	8G/	8g\	.	.	.	.
.	.	16c\	.	16g/	.	.	.	.	.	.	.	.	.
8C/	.	16c\	.	16g/	.	.	.	8G/J	8g\J	.	.	.	.
.	.	16c\JJ	.	16g/JJ	.	.	.	.	.	.	.	.	.
8C/	.	16c\LL	.	16ee\LL	.	8r	.	4G/	4g\	.	.	.	.
.	.	16c\	.	16ee\	.	.	.	.	.	.	.	.	.
8C/J	.	16c\	.	16ee\	.	8gg\	.	.	.	.	.	.	.
.	.	16c\JJ	.	16ee\JJ	.	.	.	.	.	.	.	.	.
!	!	!	!	!	!	!LO:LB:g=original	!	!	!LO:LB:g=original	!	!	!	!
=112	=112	=112	=112	=112	=112	=112	=112	=112	=112	=112	=112	=112	=112
4D\	.	4d\	.	8.dd\L	.	8.ff#\L	.	4r	4r	8.dd\L	.	8.ff#\L	.
.	.	.	.	.	.	.	.	.	.	.	.	.	.
.	.	.	.	16ff#\Jk	.	16aa\Jk	.	.	.	16ff#\Jk	.	16aa\J	.
8r	.	8r	.	4aa\	.	4ccc\	.	4r	4r	4aa\	.	4ccc\	.
16D\LL	.	8d\L	.	.	.	.	.	.	.	.	.	.	.
16E\JJ	.	.	.	.	.	.	.	.	.	.	.	.	.
8F#\L	.	8d\	.	4gg\	.	4bb\	.	4g\	4b\	4gg\	.	4bb\	.
8F#\J	.	8d\J	.	.	.	.	.	.	.	.	.	.	.
=113	=113	=113	=113	=113	=113	=113	=113	=113	=113	=113	=113	=113	=113
*	*	*	*	*	*	*	*	*2\right	*	*	*	*	*
!!mixed beam:problem
!LO:TX:t=P:problem=mixed beam	!	!	!	!	!	!	!	!	!	!	!	!	!
8D/L	.	8d\L	.	2gg\	.	2bb\	.	2g\	2b\	2gg\	.	2bb\	.
8d\	.	8d\	.	.	.	.	.	.	.	.	.	.	.
8d\	.	8d\	.	.	.	.	.	.	.	.	.	.	.
8D/J	.	8d\J	.	.	.	.	.	.	.	.	.	.	.
4DD/	.	4D/	.	4ff#\	.	4aa\	.	4d/	4a\	4ff#\	.	4aa\	.
!	!	!	!	!LO:LB:g=original	!	!	!	!LO:LB:g=original	!	!	!	!LO:LB:g=original	!
=114	=114	=114	=114	=114	=114	=114	=114	=114	=114	=114	=114	=114	=114
!LO:TX:a:t=4	!	!	!	!	!LO:DY:t=pia&colon;	!	!LO:DY:rj:t=p&colon;	!LO:TX:a:t=4	!LO:TX:a:t=4	!LO:TX:a:t=4	!	!LO:TX:a:t=4	!
0.r	.	8f#\L	.	4b\	p	4dd\	p	0.r	0.r	0.r	.	0.r	.
.	.	8g\J	.	.	.	.	.	.	.	.	.	.	.
.	.	4G/	.	4b\	.	4dd\	.	.	.	.	.	.	.
.	.	4r	.	8r	.	8r	.	.	.	.	.	.	.
.	.	.	.	8cc\	.	8ee\	.	.	.	.	.	.	.
=115-	=115	=115	=115	=115	=115	=115	=115	=115-	=115-	=115-	=115	=115-	=115
.	.	.	.	.	.	8qqdd/	.	.	.	.	.	.	.
.	.	8r	.	2a/	.	2cc\	.	.	.	.	.	.	.
.	.	8d\L	.	.	.	.	.	.	.	.	.	.	.
.	.	8e\	.	.	.	.	.	.	.	.	.	.	.
.	.	8f#\	.	.	.	.	.	.	.	.	.	.	.
.	.	8g\	.	4g/	.	4b\	.	.	.	.	.	.	.
.	.	8e\J	.	.	.	.	.	.	.	.	.	.	.
=116-	=116	=116	=116	=116	=116	=116	=116	=116-	=116-	=116-	=116	=116-	=116
.	.	4c\	.	4r	.	16b\LL	.	.	.	.	.	.	.
.	.	.	.	.	.	16a\	.	.	.	.	.	.	.
.	.	.	.	.	.	16cc\	.	.	.	.	.	.	.
.	.	.	.	.	.	16ee\JJ	.	.	.	.	.	.	.
.	.	4r	.	4B/	.	4g/	.	.	.	.	.	.	.
!!mixed beam:problem
!	!	!LO:TX:t=P:problem=mixed beam	!	!	!	!	!	!	!	!	!	!	!
.	.	8d\L	.	4c/	.	4f#/	.	.	.	.	.	.	.
.	.	8D/J	.	.	.	.	.	.	.	.	.	.	.
=117-	=117	=117	=117	=117	=117	=117	=117	=117-	=117-	=117-	=117	=117-	=117
!!mixed beam:problem
!	!	!LO:TX:t=P:problem=mixed beam	!	!	!	!	!	!	!	!	!	!	!
.	.	.	.	.	.	8qqf#/	.	.	.	.	.	.	.
.	.	8E/L	.	8B/L	.	4.g/	.	.	.	.	.	.	.
.	.	8e\	.	8B/	.	.	.	.	.	.	.	.	.
.	.	8d\	.	8B/	.	.	.	.	.	.	.	.	.
.	.	8c\J	.	8B/J	.	16f#/LL	.	.	.	.	.	.	.
.	.	.	.	.	.	16e/JJ	.	.	.	.	.	.	.
.	.	4B/	.	8d/L	.	4d/	.	.	.	.	.	.	.
.	.	.	.	8d/J	.	.	.	.	.	.	.	.	.
!	!	!LO:LB:g=original	!	!	!	!	!	!	!	!	!	!	!
=118	=118	=118	=118	=118	=118	=118	=118	=118	=118	=118	=118	=118	=118
!	!	!	!	!	!LO:DY:t=for&colon;	!	!LO:DY:t=for	!	!	!	!	!	!
8G\L	.	8b\L	.	4dd\	f	4dd\	f	4B/	4g\	2.b\	.	2.dd\	.
8B\	.	8b\	.	.	.	.	.	.	.	.	.	.	.
8G\	.	8b\	.	4dd\	.	4dd\	.	4g\	4b\	.	.	.	.
8B\	.	8b\	.	.	.	.	.	.	.	.	.	.	.
8G\	.	8b\	.	8r	.	8r	.	4b\	4dd\	.	.	.	.
!	!	!LO:TX:a:t=9	!	!	!	!	!	!	!	!	!	!	!
8D\J	.	8b\J	.	8bb\	.	8bb\	.	.	.	.	.	.	.
!LO:LB:g=original	!	!	!	!	!	!	!	!	!	!LO:LB:g=original	!	!	!
=119	=119	=119	=119	=119	=119	=119	=119	=119	=119	=119	=119	=119	=119
*	*	*tremolo	*	*	*	*	*	*	*	*	*	*	*
8F#\L	.	8d\L	.	8aa\L	.	8aa\L	.	8r	8r	2.a/	.	2.cc\	.
8A\	.	8d\	.	8cc\J	.	8cc\J	.	8d/L	8a\L	.	.	.	.
8F#\	.	8d\	.	2cc\	.	2cc\	.	8d/	8a\	.	.	.	.
8A\	.	8d\	.	.	.	.	.	8d/J	8a\J	.	.	.	.
8F#\	.	8d\	.	.	.	.	.	4d/	4a\	.	.	.	.
8D\J	.	8d\J	.	.	.	.	.	.	.	.	.	.	.
*	*	*Xtremolo	*	*	*	*	*	*	*	*	*	*	*
=120	=120	=120	=120	=120	=120	=120	=120	=120	=120	=120	=120	=120	=120
!	!	!	!	!	!	!	!LO:DY:t=for&colon;	!LO:TX:a:t=1	!LO:TX:a:t=1	!	!	!	!
8G\L	.	8G/L	.	16b\LL	.	16b\LL	f	2.r	2.r	4g/	.	8b\L	.
.	.	.	.	16b\	.	16b\	.	.	.	.	.	.	.
8A\	.	8A/	.	16cc\	.	16cc\	.	.	.	.	.	8cc\	.
.	.	.	.	16cc\JJ	.	16cc\JJ	.	.	.	.	.	.	.
8B\	.	8B/	.	16dd\LL	.	16dd\LL	.	.	.	4r	.	8dd\	.
.	.	.	.	16dd\	.	16dd\	.	.	.	.	.	.	.
8c\	.	8c/	.	16ee\	.	16ee\	.	.	.	.	.	8ee\	.
.	.	.	.	16ee\JJ	.	16ee\JJ	.	.	.	.	.	.	.
8d\	.	8d/	.	16ff#\LL	.	16ff#\LL	.	.	.	4r	.	8ff#\	.
.	.	.	.	16ff#\	.	16ff#\	.	.	.	.	.	.	.
8e\J	.	8e/J	.	16gg\	.	16gg\	.	.	.	.	.	8gg\J	.
.	.	.	.	16gg\JJ	.	16gg\JJ	.	.	.	.	.	.	.
!	!	!	!	!	!	!LO:LB:g=original	!	!	!	!	!	!	!
=121	=121	=121	=121	=121	=121	=121	=121	=121	=121	=121	=121	=121	=121
*	*	*	*	*	*	*Xtuplet	*	*	*	*	*	*	*
!	!	!	!	!	!	!LO:N:vis=24	!	!	!	!	!	!	!
4C/	.	8g\L	.	8ee\L	.	12ee\L	.	4r	4r	4g/	.	8ee\L	.
!	!	!	!	!	!	!LO:N:vis=24	!	!	!	!	!	!	!
.	.	.	.	.	.	12dd\	.	.	.	.	.	.	.
.	.	8a\	.	16dd\L	.	.	.	.	.	.	.	16dd\L	.
!	!	!	!	!	!	!LO:N:vis=24	!	!	!	!	!	!	!
.	.	.	.	.	.	12cc\J	.	.	.	.	.	.	.
.	.	.	.	16cc\JJ	.	.	.	.	.	.	.	16cc\JJ	.
8D/L	.	8g\	.	4b\	.	4b\	.	4g\	4b\	4g/	.	4b/	.
8D/	.	8g\	.	.	.	.	.	.	.	.	.	.	.
8D/	.	8f#\	.	4a\	.	4a\	.	4d/	4a\	4f#/	.	4a/	.
8D/J	.	8f#\J	.	.	.	.	.	.	.	.	.	.	.
=122	=122	=122	=122	=122	=122	=122	=122	=122	=122	=122	=122	=122	=122
!	!LO:DY:rj	!	!	!	!	!	!LO:DY:rj:t=for&colon;	!	!	!	!LO:DY:b:rj:t=p&colon;	!	!LO:DY:b:t=p&colon;
8BB/L	p	4g\	.	8g/L	p	4G/ 4d/ 4b/ 4gg/	f	2B/	2g\	4d/	p	2g/	p
8BB/	.	.	.	8g/	.	.	.	.	.	.	.	.	.
8BB/	.	4r	.	8g/	.	8r	.	.	.	2d/	.	.	.
!!mixed beam:problem
!	!	!	!	!	!	!LO:TX:t=P:problem=mixed beam	!LO:DY:t=p&colon;	!	!	!	!	!	!
8BB/	.	.	.	8g/	.	8dd\L	p	.	.	.	.	.	.
!	!	!	!	!	!	!	!	!	!	!	!	!LO:SIC:v:s=4fn	!
8BB/	.	4r	.	8g/	.	8d/	.	4r	4r	.	.	4gn/	.
8BB/J	.	.	.	8g/J	.	8fn/J	.	.	.	.	.	.	.
!	!	!	!	!LO:LB:g=original	!	!	!	!	!	!	!	!	!
=123	=123	=123	=123	=123	=123	=123	=123	=123	=123	=123	=123	=123	=123
*	*	*	*	*tremolo	*	*	*	*	*	*	*	*	*
!	!	!LO:TX:a:t=1	!	!	!	!LO:SIC:v:s=8fn:t=dotyczy przednutki	!	!LO:TX:a:t=1	!LO:TX:a:t=1	!	!	!	!
.	.	.	.	.	.	8qqf#/	.	.	.	.	.	.	.
8C/L	.	2.r	.	8g/L	.	2e/	.	2.r	2.r	2.c/	.	2.e/	.
8C/	.	.	.	8g/	.	.	.	.	.	.	.	.	.
8C/	.	.	.	8g/	.	.	.	.	.	.	.	.	.
8C/	.	.	.	8g/	.	.	.	.	.	.	.	.	.
8C/	.	.	.	8g/	.	4r	.	.	.	.	.	.	.
8C/J	.	.	.	8g/J	.	.	.	.	.	.	.	.	.
*	*	*	*	*Xtremolo	*	*	*	*	*	*	*	*	*
=124	=124	=124	=124	=124	=124	=124	=124	=124	=124	=124	=124	=124	=124
!	!LO:DY:rj:t=for.	!	!	!	!LO:DY:t=for:rj	!	!LO:DY:rj:t=for&colon;	!	!	!	!	!	!
8C/L	f	4G/	.	8g/L	f	4G/ 4e/ 4cc/	f	4G/	4g\	2.cc\	.	2ee\	.
8C/	.	.	.	8g/	.	.	.	.	.	.	.	.	.
8C/	.	4r	.	8g/	.	8r	.	4r	4r	.	.	.	.
!!mixed beam:problem
!	!	!	!	!	!	!LO:TX:t=P:problem=mixed beam	!LO:DY:t=p&colon;	!	!	!	!	!	!
8C/	.	.	.	8g/J	.	8ee\L	p	.	.	.	.	.	.
!	!	!	!	!	!LO:DY:rj:t=p&colon;	!	!	!	!	!	!	!	!
8D/	.	4r	.	8c/L	p	8f#/	.	4r	4r	.	.	4f#/	.
!	!LO:DY:t=p&colon;	!	!	!	!	!	!	!	!	!	!	!	!
8D/J	p	.	.	8c/J	.	8a/J	.	.	.	.	.	.	.
!	!	!	!	!	!	!	!	!	!LO:LB:g=original	!	!	!	!
=125	=125	=125	=125	=125	=125	=125	=125	=125	=125	=125	=125	=125	=125
!	!	!LO:TX:a:t=1	!	!	!	!LO:SIC:v:s:t=8qqfn	!	!LO:TX:a:t=1	!LO:TX:a:t=1	!LO:TX:a:t=1	!	!	!
.	.	.	.	.	.	8qqa/	.	.	.	.	.	.	.
8E\L	.	2.r	.	8B/L	.	2g/	.	2.r	2.r	2.r	.	2.g/	.
8E\	.	.	.	8B/	.	.	.	.	.	.	.	.	.
8E\	.	.	.	8B/	.	.	.	.	.	.	.	.	.
8E\	.	.	.	8B/	.	.	.	.	.	.	.	.	.
8E\	.	.	.	8B/	.	4r	.	.	.	.	.	.	.
8E\J	.	.	.	8B/J	.	.	.	.	.	.	.	.	.
!LO:LB:g=original	!	!	!	!	!	!	!	!	!	!	!	!LO:LB:g=original	!
=126	=126	=126	=126	=126	=126	=126	=126	=126	=126	=126	=126	=126	=126
!	!	!	!	!	!LO:DY:t=for&colon;	!	!LO:DY:rj:t=for	!	!	!	!	!	!
8BB/L	.	4G/	.	16g/LL	f	4d\ 4b\ 4gg\	f	4G/	4g\	4b\	.	4gg\	.
.	.	.	.	16g/	.	.	.	.	.	.	.	.	.
8BB/	.	.	.	16g/	.	.	.	.	.	.	.	.	.
.	.	.	.	16g/JJ	.	.	.	.	.	.	.	.	.
8BB/	.	4r	.	16g/LL	.	8r	.	4r	4r	4r	.	4r	.
.	.	.	.	16g/	.	.	.	.	.	.	.	.	.
8BB/	.	.	.	16g/	.	8ffn\L	.	.	.	.	.	.	.
.	.	.	.	16g/JJ	.	.	.	.	.	.	.	.	.
8BB/	.	4r	.	16g/LL	.	8ee\	.	4r	4r	4r	.	4r	.
.	.	.	.	16g/	.	.	.	.	.	.	.	.	.
8BB/J	.	.	.	16g/	.	8dd#X\J	.	.	.	.	.	.	.
.	.	.	.	16g/JJ	.	.	.	.	.	.	.	.	.
!	!	!LO:LB:g=original	!	!	!	!	!	!	!	!	!	!	!
=127	=127	=127	=127	=127	=127	=127	=127	=127	=127	=127	=127	=127	=127
!	!	!LO:TX:a:t=2	!	!	!	!LO:SIC:v:s=8dd#	!	!LO:TX:a:t=2	!LO:TX:a:t=2	!LO:TX:a:t=1	!	!LO:TX:a:t=1	!
8C/L	.	1.r	.	4g/	.	8dd\L	.	1.r	1.r	2.r	.	2.r	.
8C/	.	.	.	.	.	8ee\	.	.	.	.	.	.	.
8C/	.	.	.	8r	.	8ddn\	.	.	.	.	.	.	.
8C/	.	.	.	8e/L	.	8cc\	.	.	.	.	.	.	.
8C/	.	.	.	8d/	.	8b\	.	.	.	.	.	.	.
8C/J	.	.	.	8c/J	.	8a\J	.	.	.	.	.	.	.
=128	=128	=128-	=128	=128	=128	=128	=128	=128-	=128-	=128	=128	=128	=128
8D\L	.	.	.	8B/L	.	8.g/L	.	.	.	4r	.	4g/	.
8D\	.	.	.	8B/	.	.	.	.	.	.	.	.	.
.	.	.	.	.	.	16d/Jk	.	.	.	.	.	.	.
8D\	.	.	.	8g/	.	4b\	.	.	.	(<4g/	.	4b/	.
8D\	.	.	.	8g/	.	.	.	.	.	.	.	.	.
8D\	.	.	.	8f#/	.	4a\	.	.	.	4f#/)	.	4a/	.
8D\J	.	.	.	8f#/J	.	.	.	.	.	.	.	.	.
!	!	!	!	!	!	!LO:LB:g=original	!	!LO:LB:g=original	!	!	!	!	!
=129	=129	=129	=129	=129	=129	=129	=129	=129	=129	=129	=129	=129	=129
!!mixed beam:problem
!LO:TX:t=P:problem=mixed beam	!LO:DY:rj	!	!	!	!LO:DY:rj:t=for	!	!LO:DY:t=for&colon;:rj	!	!	!	!	!	!
8GG/L	f	8G/L	.	8B/L	f	16dd\LL	f	4b\	4dd\	2.b\	.	2.dd\	.
.	.	.	.	.	.	16dd\	.	.	.	.	.	.	.
16B\L	.	16B/L	.	16g/L	.	16dd\	.	.	.	.	.	.	.
16c\JJ	.	16c/JJ	.	16a/JJ	.	16dd\JJ	.	.	.	.	.	.	.
8d\L	.	8d\L	.	8b/L	.	16dd\LL	.	4g\	4b\	.	.	.	.
.	.	.	.	.	.	16dd\	.	.	.	.	.	.	.
8B\	.	8B\	.	8g/	.	16dd\	.	.	.	.	.	.	.
.	.	.	.	.	.	16dd\JJ	.	.	.	.	.	.	.
8A\	.	8A\	.	8f#/	.	16dd\LL	.	4b\	4dd\	.	.	.	.
.	.	.	.	.	.	16dd\	.	.	.	.	.	.	.
8G\J	.	8G\J	.	8g/J	.	16dd\	.	.	.	.	.	.	.
.	.	.	.	.	.	16dd\JJ	.	.	.	.	.	.	.
!	!	!	!	!	!	!	!	!	!	!LO:LB:g=original	!	!	!
=130	=130	=130	=130	=130	=130	=130	=130	=130	=130	=130	=130	=130	=130
4F#\	.	4d\	.	4a/	.	16dd\LL	.	4a\	4dd\	2.a/	.	4dd\	.
.	.	.	.	.	.	16cc\	.	.	.	.	.	.	.
.	.	.	.	.	.	16ee\	.	.	.	.	.	.	.
.	.	.	.	.	.	16dd\JJ	.	.	.	.	.	.	.
4r	.	4r	.	8r	.	16cc\LL	.	4r	4r	.	.	2cc\	.
.	.	.	.	.	.	16b\	.	.	.	.	.	.	.
.	.	.	.	4r	.	16a\	.	.	.	.	.	.	.
.	.	.	.	.	.	16g\JJ	.	.	.	.	.	.	.
8r	.	8r	.	.	.	16f#/LL	.	4r	4r	.	.	.	.
.	.	.	.	.	.	16e/	.	.	.	.	.	.	.
8F#\	.	8d\	.	8A/	.	16d/	.	.	.	.	.	.	.
.	.	.	.	.	.	16c/JJ	.	.	.	.	.	.	.
!	!	!	!	!LO:LB:g=original	!	!	!	!	!	!	!	!	!
=131	=131	=131	=131	=131	=131	=131	=131	=131	=131	=131	=131	=131	=131
!!mixed beam:problem
!	!	!	!	!	!	!LO:TX:t=P:problem=mixed beam	!	!	!	!	!	!	!
8G\L	.	8d\L	.	8G/L	.	16B/LL	.	4b\	4dd\	4r	.	4r	.
.	.	.	.	.	.	16dd\	.	.	.	.	.	.	.
16B\L	.	16B\L	.	16g/L	.	16dd\	.	.	.	.	.	.	.
16c\JJ	.	16c\JJ	.	16a/JJ	.	16dd\JJ	.	.	.	.	.	.	.
8d\L	.	8d\L	.	8b/L	.	16dd\LL	.	4g\	4b\	2b\	.	2dd\	.
.	.	.	.	.	.	16dd\	.	.	.	.	.	.	.
8B\	.	8B\	.	8g/	.	16dd\	.	.	.	.	.	.	.
.	.	.	.	.	.	16dd\JJ	.	.	.	.	.	.	.
8A\	.	8A\	.	8f#/	.	16dd\LL	.	4b\	4dd\	.	.	.	.
.	.	.	.	.	.	16dd\	.	.	.	.	.	.	.
8G\J	.	8G\J	.	8g/J	.	16dd\	.	.	.	.	.	.	.
.	.	.	.	.	.	16dd\JJ	.	.	.	.	.	.	.
!LO:LB:g=original	!	!	!	!	!	!	!	!	!	!	!	!	!
=132	=132	=132	=132	=132	=132	=132	=132	=132	=132	=132	=132	=132	=132
4F#\	.	4d\	.	4a/	.	16dd\LL	.	4a\	4dd\	2.a/	.	4dd\	.
.	.	.	.	.	.	16cc\	.	.	.	.	.	.	.
.	.	.	.	.	.	16ee\	.	.	.	.	.	.	.
.	.	.	.	.	.	16dd\JJ	.	.	.	.	.	.	.
4r	.	4r	.	4r	.	16cc\LL	.	4r	4r	.	.	2cc\	.
.	.	.	.	.	.	16b\	.	.	.	.	.	.	.
.	.	.	.	.	.	16a\	.	.	.	.	.	.	.
.	.	.	.	.	.	16g\JJ	.	.	.	.	.	.	.
8r	.	8r	.	8r	.	16f#/LL	.	4r	4r	.	.	.	.
.	.	.	.	.	.	16e/	.	.	.	.	.	.	.
8F#\	.	8d\	.	8A/	.	16d/	.	.	.	.	.	.	.
.	.	.	.	.	.	16c/JJ	.	.	.	.	.	.	.
=133	=133	=133	=133	=133	=133	=133	=133	=133	=133	=133	=133	=133	=133
8G\L	.	4d\	.	4G/	.	8B/	.	4B/	4g\	4r	.	8r	.
8G\	.	.	.	.	.	4gg\	.	.	.	.	.	4gg\	.
8G\	.	16g\LL	.	16b\LL	.	.	.	4B/	4g\	4b\	.	.	.
.	.	16f#\	.	16a\	.	.	.	.	.	.	.	.	.
8G\	.	16g\	.	16b\	.	4gg\	.	.	.	.	.	4gg\	.
.	.	16a\JJ	.	16cc\JJ	.	.	.	.	.	.	.	.	.
8G\	.	8b\L	.	8dd\L	.	.	.	4r	4r	4dd\	.	.	.
8G\J	.	8b\J	.	8dd\J	.	8gg\	.	.	.	.	.	8gg\	.
!	!	!	!	!	!	!LO:LB:g=original	!	!	!	!	!	!	!
=134	=134	=134	=134	=134	=134	=134	=134	=134	=134	=134	=134	=134	=134
8BB/L	.	16g\LL	.	16dd\LL	.	8gg\L	.	4r	4r	2.dd\	.	8gg\L	.
.	.	16g\	.	16dd\	.	.	.	.	.	.	.	.	.
8BB/	.	16g\	.	16dd\	.	8ffn\J	.	.	.	.	.	8ffn\J	.
.	.	16g\JJ	.	16dd\JJ	.	.	.	.	.	.	.	.	.
8BB/	.	16g\LL	.	16dd\LL	.	2ff\	.	4G/	8g\L	.	.	2ff\	.
.	.	16g\	.	16dd\	.	.	.	.	.	.	.	.	.
8BB/	.	16g\	.	16dd\	.	.	.	.	8g\	.	.	.	.
.	.	16g\JJ	.	16dd\JJ	.	.	.	.	.	.	.	.	.
!	!	!LO:LB:g=original	!	!	!	!	!	!	!	!	!	!	!
8BB/	.	16g\LL	.	16dd\LL	.	.	.	4G/	8g\	.	.	.	.
.	.	16g\	.	16dd\	.	.	.	.	.	.	.	.	.
8BB/J	.	16g\	.	16dd\	.	.	.	.	8g\J	.	.	.	.
.	.	16g\JJ	.	16dd\JJ	.	.	.	.	.	.	.	.	.
!	!	!	!	!	!	!	!	!	!LO:LB:g=original	!	!	!LO:LB:g=original	!
=135	=135	=135	=135	=135	=135	=135	=135	=135	=135	=135	=135	=135	=135
8C/L	.	8g\L	.	8cc\L	.	8ee\L	.	4G/	4g\	8cc\L	.	8ee\L	.
8C/	.	8e\	.	16b\L	.	16dd\L	.	.	.	16b\L	.	16dd\L	.
.	.	.	.	16a\JJ	.	16cc\JJ	.	.	.	16a\JJ	.	16cc\JJ	.
8D/	.	8d\	.	8g/	.	4b/	.	8g\	4b\	4g/	.	4b\	.
8D/	.	8d\	.	4g/	.	.	.	4g\	.	.	.	.	.
8D/	.	8d\	.	.	.	4a/	.	.	4a\	4f#/	.	4a\	.
8D/J	.	8d\J	.	8f#/	.	.	.	8d/	.	.	.	.	.
=136	=136	=136	=136	=136	=136	=136	=136	=136	=136	=136	=136	=136	=136
8E\L	.	8e\L	.	16g\LL	.	8g/	.	4B/	4g\	2.b\	.	2.gg\	.
.	.	.	.	16a\	.	.	.	.	.	.	.	.	.
8E\	.	8e\	.	16b\	.	4gg\	.	.	.	.	.	.	.
.	.	.	.	16cc\JJ	.	.	.	.	.	.	.	.	.
8E\	.	8e\	.	16b\LL	.	.	.	4B/	4g\	.	.	.	.
.	.	.	.	16a\	.	.	.	.	.	.	.	.	.
8E\	.	8e\	.	16b\	.	4gg\	.	.	.	.	.	.	.
.	.	.	.	16cc\JJ	.	.	.	.	.	.	.	.	.
8E\	.	8e\	.	8b\L	.	.	.	4r	4r	.	.	.	.
8E\J	.	8e\J	.	8a\J	.	8gg\	.	.	.	.	.	.	.
!	!	!	!	!LO:LB:g=original	!	!	!	!	!	!	!	!	!
=137	=137	=137	=137	=137	=137	=137	=137	=137	=137	=137	=137	=137	=137
8BB/L	.	8B\L	.	16g\LL	.	8ddd\L	.	4r	4r	2.dd\	.	8gg\L	.
.	.	.	.	16a\	.	.	.	.	.	.	.	.	.
8BB/	.	16g\L	.	16b\	.	8ffn\J	.	.	.	.	.	8ffn\J	.
.	.	16a\JJ	.	16cc\JJ	.	.	.	.	.	.	.	.	.
8BB/	.	8g\L	.	16dd\LL	.	2ff\	.	4G/	8g\L	.	.	2ff\	.
.	.	.	.	16cc\	.	.	.	.	.	.	.	.	.
8BB/	.	8g\	.	16dd\	.	.	.	.	8g\	.	.	.	.
.	.	.	.	16ee\JJ	.	.	.	.	.	.	.	.	.
8BB/	.	8g\	.	8dd\L	.	.	.	4G/	8g\	.	.	.	.
8BB/J	.	8g\J	.	8dd\J	.	.	.	.	8g\J	.	.	.	.
=138	=138	=138	=138	=138	=138	=138	=138	=138	=138	=138	=138	=138	=138
8C\L	.	8g\L	.	8cc\L	.	8ee\L	.	4G/	4g\	4cc\	.	4ee\	.
8C\	.	8e\	.	16b\L	.	16dd\L	.	.	.	.	.	.	.
.	.	.	.	16a\JJ	.	16cc\JJ	.	.	.	.	.	.	.
8D\	.	8d\	.	16g/LL	.	4b/	.	4g\	4b\	4g/	.	4b\	.
.	.	.	.	16f#/	.	.	.	.	.	.	.	.	.
8D\	.	8d\	.	16e/	.	.	.	.	.	.	.	.	.
.	.	.	.	16d/JJ	.	.	.	.	.	.	.	.	.
8D\	.	8d\	.	8g/L	.	4a/	.	4d/	4a\	4g/	.	4a\	.
8D\J	.	8d\J	.	8f#/J	.	.	.	.	.	.	.	.	.
!LO:LB:g=original	!	!	!	!	!	!	!	!	!	!	!	!	!
=139	=139	=139	=139	=139	=139	=139	=139	=139	=139	=139	=139	=139	=139
!LO:TX:a:t=1	!	!LO:TX:a:t=1	!	!	!	!	!	!LO:TX:a:t=1	!LO:TX:a:t=1	!	!	!	!
.	.	.	.	8qqf#/	.	.	.	.	.	.	.	.	.
2.r	.	2.r	.	4g#X/	.	4g#X/	.	2.r	2.r	4g#X/	.	4g#X/	.
.	.	.	.	8.a\L	.	8.a/L	.	.	.	4a/	.	4a/	.
.	.	.	.	16b\K	.	16b/K	.	.	.	.	.	.	.
.	.	.	.	8.cc\	.	8.cc/	.	.	.	4r	.	4r	.
.	.	.	.	16dd\Jk	.	16dd/Jk	.	.	.	.	.	.	.
!	!	!	!	!	!	!	!	!LO:LB:g=original	!	!LO:LB:g=original	!	!	!
=140	=140	=140	=140	=140	=140	=140	=140	=140	=140	=140	=140	=140	=140
8C/L	.	8c\L	.	8cc\L	.	8ee\L	.	4r	4r	4cc\	.	4ee\	.
8C/	.	8e\	.	16b\L	.	16dd\L	.	.	.	.	.	.	.
.	.	.	.	16a\JJ	.	16cc\JJ	.	.	.	.	.	.	.
8D/	.	8d\	.	16g/LL	.	4b\	.	4g\	4b\	4gn/	.	4b\	.
.	.	.	.	16f#/	.	.	.	.	.	.	.	.	.
8D/	.	8d\	.	16e/	.	.	.	.	.	.	.	.	.
.	.	.	.	16d/JJ	.	.	.	.	.	.	.	.	.
8D/	.	8d\	.	8g/L	.	4a\	.	4d/	4a\	4f#/	.	4a\	.
8D/J	.	8d\J	.	8f#/J	.	.	.	.	.	.	.	.	.
!	!	!LO:LB:g=original	!	!	!	!	!	!	!	!	!	!	!
=141	=141	=141	=141	=141	=141	=141	=141	=141	=141	=141	=141	=141	=141
!LO:TX:a:t=1	!	!LO:TX:a:t=1	!	!	!	!	!	!LO:TX:a:t=1	!LO:TX:a:t=1	!	!	!	!
2.r	.	2.r	.	4g#X/	.	4g#X/	.	2.r	2.r	4g#X/	.	4r	.
.	.	.	.	8.a/L	.	8.a/L	.	.	.	4a/	.	4g#X/	.
.	.	.	.	16b/K	.	16b/K	.	.	.	.	.	.	.
.	.	.	.	8.cc/	.	8.cc/	.	.	.	4r	.	4a/	.
.	.	.	.	16dd/Jk	.	16dd/Jk	.	.	.	.	.	.	.
!	!	!	!	!	!	!LO:LB:g=original	!	!	!	!	!	!	!
=142	=142	=142	=142	=142	=142	=142	=142	=142	=142	=142	=142	=142	=142
8C/L	.	8c\L	.	8cc\L	.	8ee\L	.	4r	4r	4cc\	.	4ee\	.
8C/	.	8e\	.	16b\L	.	16dd\L	.	.	.	.	.	.	.
.	.	.	.	16a\JJ	.	16cc\JJ	.	.	.	.	.	.	.
8D/	.	8d\	.	16g/LL	.	4b/	.	4g\	4b\	4gn/	.	4b\	.
.	.	.	.	16f#/	.	.	.	.	.	.	.	.	.
8D/	.	8d\	.	16e/	.	.	.	.	.	.	.	.	.
.	.	.	.	16d/JJ	.	.	.	.	.	.	.	.	.
8D/	.	8d\	.	8g/L	.	4a/	.	4d/	4a\	4f#/	.	4a\	.
8D/J	.	8d\J	.	8f#/J	.	.	.	.	.	.	.	.	.
!	!	!	!	!LO:LB:g=original	!	!	!	!	!	!	!	!LO:LB:g=original	!
=143	=143	=143	=143	=143	=143	=143	=143	=143	=143	=143	=143	=143	=143
*	*	*^	*	*	*	*	*	*	*	*	*	*	*
8GG/L	.	4d/	4G\	.	16B/LL	.	4g/	.	4B/	4g\	4d/	.	4g\	.
.	.	.	.	.	16c/	.	.	.	.	.	.	.	.	.
8BB/	.	.	.	.	16d/	.	.	.	.	.	.	.	.	.
.	.	.	.	.	16c/JJ	.	.	.	.	.	.	.	.	.
8D/	.	4d/	4G\	.	4B/	.	4d\ 4b\ 4gg\	.	4r	4r	4g/	.	4b\	.
8G/	.	.	.	.	.	.	.	.	.	.	.	.	.	.
8D/	.	4d/	4G\	.	4d\ 4b\ 4gg\	.	4d\ 4b\ 4gg\	.	4B/	4g\	4b/	.	4dd\	.
8BB/J	.	.	.	.	.	.	.	.	.	.	.	.	.	.
!	!	!	!	!	!	!	!	!	!	!LO:LB:g=original	!	!	!	!
=144	=144	=144	=144	=144	=144	=144	=144	=144	=144	=144	=144	=144	=144	=144
8GG/L	.	4d/	4G\	.	4d\ 4b\ 4gg\	.	4d\ 4b\ 4gg\	.	4B/	4g\	2.b\	.	2.gg\	.
8BB/	.	.	.	.	.	.	.	.	.	.	.	.	.	.
8D/	.	4r	4ryy	.	8r	.	8r	.	4r	4r	.	.	.	.
8G/	.	.	.	.	8b\L	.	16g/LL	.	.	.	.	.	.	.
.	.	.	.	.	.	.	16g/JJ	.	.	.	.	.	.	.
8D/	.	4d/	4G\	.	8b\	.	16b\LL	.	4B/	4g\	.	.	.	.
.	.	.	.	.	.	.	16b\	.	.	.	.	.	.	.
8BB/J	.	.	.	.	8b\J	.	16dd\	.	.	.	.	.	.	.
.	.	.	.	.	.	.	16dd\JJ	.	.	.	.	.	.	.
=145	=145	=145	=145	=145	=145	=145	=145	=145	=145	=145	=145	=145	=145	=145
8GG/L	.	4d/	4G\	.	4d\ 4b\ 4gg\	.	4d\ 4b\ 4gg\	.	4B/	4g\	2.b\	.	2.gg\	.
8BB/	.	.	.	.	.	.	.	.	.	.	.	.	.	.
8D/	.	4r	4ryy	.	8r	.	8r	.	4r	4r	.	.	.	.
8G/	.	.	.	.	8b\L	.	16g/LL	.	.	.	.	.	.	.
.	.	.	.	.	.	.	16g/JJ	.	.	.	.	.	.	.
8D/	.	4d/	4G\	.	8b\	.	16b\LL	.	4B/	4g\	.	.	.	.
.	.	.	.	.	.	.	16b\	.	.	.	.	.	.	.
8BB/J	.	.	.	.	8b\J	.	16dd\	.	.	.	.	.	.	.
.	.	.	.	.	.	.	16dd\JJ	.	.	.	.	.	.	.
=146	=146	=146	=146	=146	=146	=146	=146	=146	=146	=146	=146	=146	=146	=146
!!mixed beam:problem
!LO:TX:t=P:problem=mixed beam	!	!	!	!	!	!	!	!	!	!	!	!	!	!
8GG/L	.	4d/	4G\	.	4b\ 4gg\	.	4d/ 4b/ 4gg/	.	4B/	4g\	2.b\	.	4gg\	.
8B\	.	.	.	.	.	.	.	.	.	.	.	.	.	.
8G\	.	4d/	4G\	.	4b\ 4gg\	.	4d/ 4b/ 4gg/	.	4B/	4g\	.	.	4gg\	.
8D\	.	.	.	.	.	.	.	.	.	.	.	.	.	.
8BB\	.	4d/	4G\	.	4b\ 4gg\	.	4d/ 4b/ 4gg/	.	4B/	4g\	.	.	4gg\	.
8D\J	.	.	.	.	.	.	.	.	.	.	.	.	.	.
!LO:LB:g=original	!	!	!	!	!	!	!	!	!	!	!	!	!	!
=147	=147	=147	=147	=147	=147	=147	=147	=147	=147	=147	=147	=147	=147	=147
!LO:TX:a:t=86&colon;	!	!	!	!	!	!	!	!	!	!	!	!	!	!
!LO:TX:b:t=Volti	!	!	!	!	!	!	!	!	!	!	!	!	!	!
2.GG/	.	2d/	2G\	.	2G/ 2d/ 2b/ 2gg/	.	2d/ 2b/ 2gg/	.	2B/	2g\	2b\	.	2gg\	.
!	!	!LO:TX:b:t=Volti	!	!	!LO:TX:b:t=Volti&colon;	!	!	!	!	!	!	!	!	!
!	!	!LO:TX:a:t=86&colon;	!	!	!LO:TX:a:t=86&colon;	!	!LO:TX:a:t=86	!	!LO:TX:a:t=86&colon;	!LO:TX:a:t=86&colon;	!LO:TX:a:t=86&colon;	!	!LO:TX:a:t=86&colon;	!
.	.	4r	4ryy	.	4r	.	4r	.	4r	4r	4r	.	4r	.
*	*	*v	*v	*	*	*	*	*	*	*	*	*	*	*
=:|!;;	=:|!	=:|!;;	=:|!	=:|!;;	=:|!	=:|!;;	=:|!	=:|!;;	=:|!;;	=:|!;;	=:|!	=:|!;;	=:|!
*-	*-	*-	*-	*-	*-	*-	*-	*-	*-	*-	*-	*-	*-
!!!system-decoration: [(g1)][(g2)][(g3)]
!!!RDF**kern: > = above
!!!RDF**kern: < = below
!!!ENC: Andrzej Borzym
!!!END: 2021-02-10
!!!EED: Jędrzej Mróz
!!!EEV: 2022-01-12
